/* XPM */
static char *result[] = {
/* columns rows colors chars-per-pixel */
"64 64 8 1 ",
"  c #C85FD3",
". c #D373C3",
"X c #EB8FC3",
"o c #EC8FC3",
"O c #EC8FC4",
"+ c #EC90C3",
"@ c #F0DDE4",
"# c None",
/* pixels */
"################################################################",
"################################################################",
"################################################################",
"################################################################",
"################################################################",
"################################################################",
"################################################################",
"################################################################",
"################################################################",
"################################################################",
"################################################################",
"################################################################",
"################################################################",
"################################################################",
"###########################oooooooooo###########################",
"########################ooo..........ooo########################",
"######################oo@...............oo######################",
"#####################X@@..................o#####################",
"###################oo@@@...................oo###################",
"##################o@.........................o##################",
"#################o............................o#################",
"################o..............................o################",
"###############o................................o###############",
"#############ooo................................ooo#############",
"#########ooooo....................................Ooooo#########",
"########o    #....................................#    o########",
"########o..o#X...................................@o#o..o########",
"#########oo##o...................................@o##oo#########",
"#############o...................................@o#############",
"############o......................................o############",
"############o.....................................@o############",
"############o......................................o############",
"###########o........................................o###########",
"###########o........................................o###########",
"###########+........................................o###########",
"##########o..........................................o##########",
"##########o..........................................o##########",
"##########o..........................................o##########",
"##########o..........................................o##########",
"#########o............................................o#########",
"#########o............................................o#########",
"#########o............................................o#########",
"#########o............................................o#########",
"#########o............................................o#########",
"#########o........................................o...o#########",
"########o....o.........................................o########",
"########o. ...................................... ... .o########",
"########o... ............ .........................o.o.o########",
"#######o ..o.....  . ....... ........ ......  ......... o#######",
"######ooo    ..........o......o.......oo........o..    ooo######",
"#########oooo o   ............................ o   oooo#########",
"#############ooooo          ........          ooooo#############",
"##################oooooooooo   ..   oooooooooo##################",
"############################ooo  ooo############################",
"###############################oo###############################",
"################################################################",
"################################################################",
"################################################################",
"################################################################",
"################################################################",
"################################################################",
"################################################################",
"################################################################",
"################################################################"
};
