/* XPM */
static char *result[] = {
/* columns rows colors chars-per-pixel */
"64 64 7 1 ",
"  c #C85FD3",
". c #D373C3",
"X c #EB8FC3",
"o c #EC8FC3",
"O c #EC90C3",
"+ c #F0DDE4",
"@ c None",
/* pixels */
"@@@@@@@@@@@@@@@@@@@@@@@@@@@@@@@@@@@@@@@@@@@@@@@@@@@@@@@@@@@@@@@@",
"@@@@@@@@@@@@@@@@@@@@@@@@@@@@@@@@@@@@@@@@@@@@@@@@@@@@@@@@@@@@@@@@",
"@@@@@@@@@@@@@@@@@@@@@@@@@@@@@@@@@@@@@@@@@@@@@@@@@@@@@@@@@@@@@@@@",
"@@@@@@@@@@@@@@@@@@@@@@@@@@@@@@@@@@@@@@@@@@@@@@@@@@@@@@@@@@@@@@@@",
"@@@@@@@@@@@@@@@@@@@@@@@@@@@@@@@@@@@@@@@@@@@@@@@@@@@@@@@@@@@@@@@@",
"@@@@@@@@@@@@@@@@@@@@@@@@@@@@@@@@@@@@@@@@@@@@@@@@@@@@@@@@@@@@@@@@",
"@@@@@@@@@@@@@@@@@@@@@@@@@@@@@@@@@@@@@@@@@@@@@@@@@@@@@@@@@@@@@@@@",
"@@@@@@@@@@@@@@@@@@@@@@@@@@@@@@@@@@@@@@@@@@@@@@@@@@@@@@@@@@@@@@@@",
"@@@@@@@@@@@@@@@@@@@@@@@@@@@@@@@@@@@@@@@@@@@@@@@@@@@@@@@@@@@@@@@@",
"@@@@@@@@@@@@@@@@@@@@@@@@@@@@@@@@@@@@@@@@@@@@@@@@@@@@@@@@@@@@@@@@",
"@@@@@@@@@@@@@@@@@@@@@@@@@@@@@@@@@@@@@@@@@@@@@@@@@@@@@@@@@@@@@@@@",
"@@@@@@@@@@@@@@@@@@@@@@@@@@@@@@@@@@@@@@@@@@@@@@@@@@@@@@@@@@@@@@@@",
"@@@@@@@@@@@@@@@@@@@@@@@@@@@@@@@@@@@@@@@@@@@@@@@@@@@@@@@@@@@@@@@@",
"@@@@@@@@@@@@@@@@@@@@@@@@@@@@@@@@@@@@@@@@@@@@@@@@@@@@@@@@@@@@@@@@",
"@@@@@@@@@@@@@@@@@@@@@@@@@@@oooooooooo@@@@@@@@@@@@@@@@@@@@@@@@@@@",
"@@@@@@@@@@@@@@@@@@@@@@@@ooo..........ooo@@@@@@@@@@@@@@@@@@@@@@@@",
"@@@@@@@@@@@@@@@@@@@@@@oo+...............oo@@@@@@@@@@@@@@@@@@@@@@",
"@@@@@@@@@@@@@@@@@@@@@X++..................o@@@@@@@@@@@@@@@@@@@@@",
"@@@@@@@@@@@@@@@@@@@oo+++...................oo@@@@@@@@@@@@@@@@@@@",
"@@@@@@@@@@@@@@@@@@o+.........................o@@@@@@@@@@@@@@@@@@",
"@@@@@@@@@@@@@@@@@o............................o@@@@@@@@@@@@@@@@@",
"@@@@@@@@@@@@@@@@o..............................o@@@@@@@@@@@@@@@@",
"@@@@@@@@ooooo@@o................................o@@ooooo@@@@@@@@",
"@@@@@@@@o    ooo................................ooo    o@@@@@@@@",
"@@@@@@@@o...oo....................................oo...o@@@@@@@@",
"@@@@@@@@@ooo@@o..................................o@@ooo@@@@@@@@@",
"@@@@@@@@@@@@@o...................................+o@@@@@@@@@@@@@",
"@@@@@@@@@@@@@o...................................+o@@@@@@@@@@@@@",
"@@@@@@@@@@@@@o...................................+o@@@@@@@@@@@@@",
"@@@@@@@@@@@@o......................................o@@@@@@@@@@@@",
"@@@@@@@@@@@@o.....................................+o@@@@@@@@@@@@",
"@@@@@@@@@@@@o......................................o@@@@@@@@@@@@",
"@@@@@@@@@@@o........................................o@@@@@@@@@@@",
"@@@@@@@@@@@o........................................o@@@@@@@@@@@",
"@@@@@@@@@@@O........................................o@@@@@@@@@@@",
"@@@@@@@@@@o..........................................o@@@@@@@@@@",
"@@@@@@@@@@o..........................................o@@@@@@@@@@",
"@@@@@@@@@@o..........................................o@@@@@@@@@@",
"@@@@@@@@@@o..........................................o@@@@@@@@@@",
"@@@@@@@@@o............................................o@@@@@@@@@",
"@@@@@@@@@o............................................o@@@@@@@@@",
"@@@@@@@@@o............................................o@@@@@@@@@",
"@@@@@@@@@o............................................o@@@@@@@@@",
"@@@@@@@@@o............................................o@@@@@@@@@",
"@@@@@@@@@o........................................o...o@@@@@@@@@",
"@@@@@@@@o....o.........................................o@@@@@@@@",
"@@@@@@@@o. ...................................... ... .o@@@@@@@@",
"@@@@@@@@o... ............ .........................o.o.o@@@@@@@@",
"@@@@@@@o ..o.....  . ....... ........ ......  ......... o@@@@@@@",
"@@@@@@ooo    ..........o......o.......oo........o..    ooo@@@@@@",
"@@@@@@@@@oooo o   ............................ o   oooo@@@@@@@@@",
"@@@@@@@@@@@@@ooooo          ........          ooooo@@@@@@@@@@@@@",
"@@@@@@@@@@@@@@@@@@oooooooooo   ..   oooooooooo@@@@@@@@@@@@@@@@@@",
"@@@@@@@@@@@@@@@@@@@@@@@@@@@@ooo  ooo@@@@@@@@@@@@@@@@@@@@@@@@@@@@",
"@@@@@@@@@@@@@@@@@@@@@@@@@@@@@@@oo@@@@@@@@@@@@@@@@@@@@@@@@@@@@@@@",
"@@@@@@@@@@@@@@@@@@@@@@@@@@@@@@@@@@@@@@@@@@@@@@@@@@@@@@@@@@@@@@@@",
"@@@@@@@@@@@@@@@@@@@@@@@@@@@@@@@@@@@@@@@@@@@@@@@@@@@@@@@@@@@@@@@@",
"@@@@@@@@@@@@@@@@@@@@@@@@@@@@@@@@@@@@@@@@@@@@@@@@@@@@@@@@@@@@@@@@",
"@@@@@@@@@@@@@@@@@@@@@@@@@@@@@@@@@@@@@@@@@@@@@@@@@@@@@@@@@@@@@@@@",
"@@@@@@@@@@@@@@@@@@@@@@@@@@@@@@@@@@@@@@@@@@@@@@@@@@@@@@@@@@@@@@@@",
"@@@@@@@@@@@@@@@@@@@@@@@@@@@@@@@@@@@@@@@@@@@@@@@@@@@@@@@@@@@@@@@@",
"@@@@@@@@@@@@@@@@@@@@@@@@@@@@@@@@@@@@@@@@@@@@@@@@@@@@@@@@@@@@@@@@",
"@@@@@@@@@@@@@@@@@@@@@@@@@@@@@@@@@@@@@@@@@@@@@@@@@@@@@@@@@@@@@@@@",
"@@@@@@@@@@@@@@@@@@@@@@@@@@@@@@@@@@@@@@@@@@@@@@@@@@@@@@@@@@@@@@@@"
};
