/* XPM */
static char *result[] = {
/* columns rows colors chars-per-pixel */
"64 64 9 1 ",
"  c #3A2035",
". c #C85FD3",
"X c #D373C3",
"o c #EB8FC3",
"O c #EC8FC3",
"+ c #ED8FC3",
"@ c #EC90C3",
"# c #F0DDE4",
"$ c None",
/* pixels */
"$$$$$$$$$$$$$$$$$$$$$$$$$$$$$$$$$$$$$$$$$$$$$$$$$$$$$$$$$$$$$$$$",
"$$$$$$$$$$$$$$$$$$$$$$$$$$$$$$$$$$$$$$$$$$$$$$$$$$$$$$$$$$$$$$$$",
"$$$$$$$$$$$$$$$$$$$$$$$$$$$$$$$$$$$$$$$$$$$$$$$$$$$$$$$$$$$$$$$$",
"$$$$$$$$$$$$$$$$$$$$$$$$$$$$$$$$$$$$$$$$$$$$$$$$$$$$$$$$$$$$$$$$",
"$$$$$$$$$$$$$$$$$$$$$$$$$$$$$$$$$$$$$$$$$$$$$$$$$$$$$$$$$$$$$$$$",
"$$$$$$$$$$$$$$$$$$$$$$$$$$$$$$$$$$$$$$$$$$$$$$$$$$$$$$$$$$$$$$$$",
"$$$$$$$$$$$$$$$$$$$$$$$$$$$OOOOOOOOOO$$$$$$$$$$$$$$$$$$$$$$$$$$$",
"$$$$$$$$$$$$$$$$$$$$$$$$OOOXXXXXXXXXXOOO$$$$$$$$$$$$$$$$$$$$$$$$",
"$$$$$$$$$$$$$$$$$$$$$$OO#XXXXXXXXXXXXXXXOO$$$$$$$$$$$$$$$$$$$$$$",
"$$$$$$$$$$$$$$$$$$$$$o##XXXXXXXXXXXXXXXXXXO$$$$$$$$$$$$$$$$$$$$$",
"$$$$$$$$$$$$$$$$$$$OO###XXXXXXXXXXXXXXXXXXXOO$$$$$$$$$$$$$$$$$$$",
"$$$$$$$$$$$$$$$$$$O#XXXXXXXXXXXXXXXXXXXXXXXXXO$$$$$$$$$$$$$$$$$$",
"$$$$$$$$$$$$$$$$$OXXXXXXXXXXXXXXXXXXXXXXXXXXXXO$$$$$$$$$$$$$$$$$",
"$$$$$$$$$$$$$$$$OXXXXXXXXXXXXXXXXXXXXXXXXXXXXXXO$$$$$$$$$$$$$$$$",
"$$$$$$$$$$$$$$$OXXXXXXXXXXXXXXXXXXXXXXXXXXXXXXXXO$$$$$$$$$$$$$$$",
"$$$$$$$$$$$$$OOOXXXXXXXXXXXXXXXXXXXXXXXXXXXXXXXXOOO$$$$$$$$$$$$$",
"$$$$$$$$$+OOOXXXXXXXXXXXXXXXXXXXXXXXXXXXXXXXXXXXXXXOOOO$$$$$$$$$",
"$$$$$$$$O....$OXXXXXXXXXXXXXXXXXXXXXXXXXXXXXXXXXXO$....O$$$$$$$$",
"$$$$$$$$OXXO$OXXXXXXXXXXXXXXXXXXXXXXXXXXXXXXXXXXX#O$OXXO$$$$$$$$",
"$$$$$$$$$OO$$OXXXXXXXXXXXXXXXXXXXXXXXXXXXXXXXXXXX#O$$OO$$$$$$$$$",
"$$$$$$$$$$$$$OXXXXXXXXXXXXXXXXXXXXXXXXXXXXXXXXXXX#O$$$$$$$$$$$$$",
"$$$$$$$$$$$$OXXXXXXXXXXXXXXXXXXXXXXXXXXXXXXXXXXXXXXO$$$$$$$$$$$$",
"$$$$$$$$$$$$OXXXXXXXXXXXXXXXXXXXXXXXXXXXXXXXXXXXXX#O$$$$$$$$$$$$",
"$$$$$$$$$$$$OXXXXXXXXXXXXXXXXXXXXXXXXXXXXXXXXXXXXXXO$$$$$$$$$$$$",
"$$$$$$$$$$$OXXXXXXXXXXXXXXXXXXXXXXXXXXXXXXXXXXXXXXXXO$$$$$$$$$$$",
"$$$$$$$$$$$OXXXXXXXXXXXXXXXXXXXXXXXXXXXXXXXXXXXXXXXXO$$$$$$$$$$$",
"$$$$$$$$$$$@XXXXXXXXXXXXXXXXXXXXXXXXXXXXXXXXXXXXXXXXO$$$$$$$$$$$",
"$$$$$$$$$$OXXXXXXXXXXXXXXXXXXXXXXXXXXXXXXXXXXXXXXXXXXO$$$$$$$$$$",
"$$$$$$$$$$OXXXXXXXXXXXXXXXXXXXXXXXXXXXXXXXXXXXXXXXXXXO$$$$$$$$$$",
"$$$$$$$$$$OXXXXXXXXXXXXXXXXXXXXXXXXXXXXXXXXXXXXXXXXXXO$$$$$$$$$$",
"$$$$$$$$$$OXXXXXXXXXXXXXXXXXXXXXXXXXXXXXXXXXXXXXXXXXXO$$$$$$$$$$",
"$$$$$$$$$OXXXXXXXXXXXXXXXXXXXXXXXXXXXXXXXXXXXXXXXXXXXXO$$$$$$$$$",
"$$$$$$$$$OXXXXXXXXXXXXXXXXXXXXXXXXXXXXXXXXXXXXXXXXXXXXO$$$$$$$$$",
"$$$$$$$$$OXXXXXXXXXXXXXXXXXXXXXXXXXXXXXXXXXXXXXXXXXXXXO$$$$$$$$$",
"$$$$$$$$$OXXXXXXXXXXXXXXXXXXXXXXXXXXXXXXXXXXXXXXXXXXXXO$$$$$$$$$",
"$$$$$$$$$OXXXXXXXXXXXXXXXXXXXXXXXXXXXXXXXXXXXXXXXXXXXXO$$$$$$$$$",
"$$$$$$$$$OXXXXXXXXXXXXXXXXXXXXXXXXXXXXXXXXXXXXXXXXOXXXO$$$$$$$$$",
"$$$$$$$$$O.XXOXXXXXXXXXXXXXXXXXXXXXXXXXXXXXXXXXXXXXXX.O$$$$$$$$$",
"$$$$$$$$$XOXXXXXXXXXXXXXXXXXXXXXXXXXXXXXXXXXXXXXX.XXXO$$$$$$$$$$",
"$$$$$$$$$$O..XXXXXXXXXXXX.XXXXXXXXXXXXXXXXXXXXXXXXXO.O$$$$$$$$$$",
"$$$$$$$$$$$O.XXXX..X.XXXXXXX.XXXXXXXX.XXXXXX..XXXXX.O$$$$$$$$$$$",
"$$$$$$$$$$$$O..XXXXXXXXOXXXXXXOXXXXXXXOOXXXXXXXXO..O$$$$$$$$$$$$",
"$$$$$$$$$$$$$OO..XXXXXXXXXXXXXXXOXXXXXXXXXXXXXX..OO$$$$$$$$$$$$$",
"$$$$$$$$$$$$$$$OO..............................OO$$$$$$$$$$$$$$$",
"$$$$$$$$$$$$$$$$$OOOOOOOOOOOOOOOOOOOOOOOOOOOOOO$$$$$$$$$$$$$$$$$",
"$$$$$$$$$$$$$$$$$$$$$$$$$$$$$$$$$$$$$$$$$$$$$$$$$$$$$$$$$$$$$$$$",
"$$$$$$$$$$$$$$$$$$$$$$$$$$$$$$$$$$$$$$$$$$$$$$$$$$$$$$$$$$$$$$$$",
"$$$$$$$$$$$$$$$$$$$$$$$$$$$$$$$$$$$$$$$$$$$$$$$$$$$$$$$$$$$$$$$$",
"$$$$$$$$$$$$$$$$$$$$                        $$$$$$$$$$$$$$$$$$$$",
"$$$$$$$$$$$$$$$$$$                            $$$$$$$$$$$$$$$$$$",
"$$$$$$$$$$$$$$$$$$$                          $$$$$$$$$$$$$$$$$$$",
"$$$$$$$$$$$$$$$$$$$$$                      $$$$$$$$$$$$$$$$$$$$$",
"$$$$$$$$$$$$$$$$$$$$$$$$$$$$$$$$$$$$$$$$$$$$$$$$$$$$$$$$$$$$$$$$",
"$$$$$$$$$$$$$$$$$$$$$$$$$$$$$$$$$$$$$$$$$$$$$$$$$$$$$$$$$$$$$$$$",
"$$$$$$$$$$$$$$$$$$$$$$$$$$$$$$$$$$$$$$$$$$$$$$$$$$$$$$$$$$$$$$$$",
"$$$$$$$$$$$$$$$$$$$$$$$$$$$$$$$$$$$$$$$$$$$$$$$$$$$$$$$$$$$$$$$$",
"$$$$$$$$$$$$$$$$$$$$$$$$$$$$$$$$$$$$$$$$$$$$$$$$$$$$$$$$$$$$$$$$",
"$$$$$$$$$$$$$$$$$$$$$$$$$$$$$$$$$$$$$$$$$$$$$$$$$$$$$$$$$$$$$$$$",
"$$$$$$$$$$$$$$$$$$$$$$$$$$$$$$$$$$$$$$$$$$$$$$$$$$$$$$$$$$$$$$$$",
"$$$$$$$$$$$$$$$$$$$$$$$$$$$$$$$$$$$$$$$$$$$$$$$$$$$$$$$$$$$$$$$$",
"$$$$$$$$$$$$$$$$$$$$$$$$$$$$$$$$$$$$$$$$$$$$$$$$$$$$$$$$$$$$$$$$",
"$$$$$$$$$$$$$$$$$$$$$$$$$$$$$$$$$$$$$$$$$$$$$$$$$$$$$$$$$$$$$$$$",
"$$$$$$$$$$$$$$$$$$$$$$$$$$$$$$$$$$$$$$$$$$$$$$$$$$$$$$$$$$$$$$$$",
"$$$$$$$$$$$$$$$$$$$$$$$$$$$$$$$$$$$$$$$$$$$$$$$$$$$$$$$$$$$$$$$$"
};
