/* XPM */
static char *result[] = {
/* columns rows colors chars-per-pixel */
"64 64 9 1 ",
"  c #3A2035",
". c #C85FD3",
"X c #D373C3",
"o c #EB8FC3",
"O c #EC8FC3",
"+ c #EC90C3",
"@ c #EC90C4",
"# c #F0DDE4",
"$ c None",
/* pixels */
"$$$$$$$$$$$$$$$$$$$$$$$$$$$$$$$$$$$$$$$$$$$$$$$$$$$$$$$$$$$$$$$$",
"$$$$$$$$$$$$$$$$$$$$$$$$$$$$$$$$$$$$$$$$$$$$$$$$$$$$$$$$$$$$$$$$",
"$$$$$$$$$$$$$$$$$$$$$$$$$$$$$$$$$$$$$$$$$$$$$$$$$$$$$$$$$$$$$$$$",
"$$$$$$$$$$$$$$$$$$$$$$$$$$$$$$$$$$$$$$$$$$$$$$$$$$$$$$$$$$$$$$$$",
"$$$$$$$$$$$$$$$$$$$$$$$$$$$$$$$$$$$$$$$$$$$$$$$$$$$$$$$$$$$$$$$$",
"$$$$$$$$$$$$$$$$$$$$$$$$$$$$$$$$$$$$$$$$$$$$$$$$$$$$$$$$$$$$$$$$",
"$$$$$$$$$$$$$$$$$$$$$$$$$$$$$$$$$$$$$$$$$$$$$$$$$$$$$$$$$$$$$$$$",
"$$$$$$$$$$$$$$$$$$$$$$$$$$$$$$$$$$$$$$$$$$$$$$$$$$$$$$$$$$$$$$$$",
"$$$$$$$$$$$$$$$$$$$$$$$$$$$$$$$$$$$$$$$$$$$$$$$$$$$$$$$$$$$$$$$$",
"$$$$$$$$$$$$$$$$$$$$$$$$$$$$$$$$$$$$$$$$$$$$$$$$$$$$$$$$$$$$$$$$",
"$$$$$$$$$$$$$$$$$$$$$$$$$$$$$$$$$$$$$$$$$$$$$$$$$$$$$$$$$$$$$$$$",
"$$$$$$$$$$$$$$$$$$$$$$$$$$$OOOOOOOOOO$$$$$$$$$$$$$$$$$$$$$$$$$$$",
"$$$$$$$$$$$$$$$$$$$$$$$$OOOXXXXXXXXXXOOO$$$$$$$$$$$$$$$$$$$$$$$$",
"$$$$$$$$$$$$$$$$$$$$$$OO#XXXXXXXXXXXXXXXOO$$$$$$$$$$$$$$$$$$$$$$",
"$$$$$$$$$$$$$$$$$$$$$o##XXXXXXXXXXXXXXXXXXO$$$$$$$$$$$$$$$$$$$$$",
"$$$$$$$$$$$$$$$$$$$OO###XXXXXXXXXXXXXXXXXXXOO$$$$$$$$$$$$$$$$$$$",
"$$$$$$$$$$$$$$$$$$O#XXXXXXXXXXXXXXXXXXXXXXXXXO$$$$$$$$$$$$$$$$$$",
"$$$$$$$$$$$$$$$$$OXXXXXXXXXXXXXXXXXXXXXXXXXXXXO$$$$$$$$$$$$$$$$$",
"$$$$$$$$$$$$$$$$OXXXXXXXXXXXXXXXXXXXXXXXXXXXXXXO$$$$$$$$$$$$$$$$",
"$$$$$$$$OOOOO$$OXXXXXXXXXXXXXXXXXXXXXXXXXXXXXXXXO$$OOOOO$$$$$$$$",
"$$$$$$$$O....OOOXXXXXXXXXXXXXXXXXXXXXXXXXXXXXXXXOOO....O$$$$$$$$",
"$$$$$$$$OXXXOOXXXXXXXXXXXXXXXXXXXXXXXXXXXXXXXXXXXXOOXXXO$$$$$$$$",
"$$$$$$$$$OOO$$OXXXXXXXXXXXXXXXXXXXXXXXXXXXXXXXXXXO$$OOO$$$$$$$$$",
"$$$$$$$$$$$$$OXXXXXXXXXXXXXXXXXXXXXXXXXXXXXXXXXXX#O$$$$$$$$$$$$$",
"$$$$$$$$$$$$$OXXXXXXXXXXXXXXXXXXXXXXXXXXXXXXXXXXX#O$$$$$$$$$$$$$",
"$$$$$$$$$$$$$OXXXXXXXXXXXXXXXXXXXXXXXXXXXXXXXXXXX#O$$$$$$$$$$$$$",
"$$$$$$$$$$$$OXXXXXXXXXXXXXXXXXXXXXXXXXXXXXXXXXXXXXXO$$$$$$$$$$$$",
"$$$$$$$$$$$$OXXXXXXXXXXXXXXXXXXXXXXXXXXXXXXXXXXXXX#O$$$$$$$$$$$$",
"$$$$$$$$$$$$OXXXXXXXXXXXXXXXXXXXXXXXXXXXXXXXXXXXXXXO$$$$$$$$$$$$",
"$$$$$$$$$$$OXXXXXXXXXXXXXXXXXXXXXXXXXXXXXXXXXXXXXXXXO$$$$$$$$$$$",
"$$$$$$$$$$$OXXXXXXXXXXXXXXXXXXXXXXXXXXXXXXXXXXXXXXXXO$$$$$$$$$$$",
"$$$$$$$$$$$+XXXXXXXXXXXXXXXXXXXXXXXXXXXXXXXXXXXXXXXXO$$$$$$$$$$$",
"$$$$$$$$$$OXXXXXXXXXXXXXXXXXXXXXXXXXXXXXXXXXXXXXXXXXXO$$$$$$$$$$",
"$$$$$$$$$$OXXXXXXXXXXXXXXXXXXXXXXXXXXXXXXXXXXXXXXXXXXO$$$$$$$$$$",
"$$$$$$$$$$OXXXXXXXXXXXXXXXXXXXXXXXXXXXXXXXXXXXXXXXXXXO$$$$$$$$$$",
"$$$$$$$$$$OXXXXXXXXXXXXXXXXXXXXXXXXXXXXXXXXXXXXXXXXXXO$$$$$$$$$$",
"$$$$$$$$$OXXXXXXXXXXXXXXXXXXXXXXXXXXXXXXXXXXXXXXXXXXXXO$$$$$$$$$",
"$$$$$$$$$OXXXXXXXXXXXXXXXXXXXXXXXXXXXXXXXXXXXXXXXXXXXXO$$$$$$$$$",
"$$$$$$$$$OXXXXXXXXXXXXXXXXXXXXXXXXXXXXXXXXXXXXXXXXXXXXO$$$$$$$$$",
"$$$$$$$$$OXXXXXXXXXXXXXXXXXXXXXXXXXXXXXXXXXXXXXXXXXXXXO$$$$$$$$$",
"$$$$$$$$$OXXXXXXXXXXXXXXXXXXXXXXXXXXXXXXXXXXXXXXXXXXXXO$$$$$$$$$",
"$$$$$$$$$OXXXXXXXXXXXXXXXXXXXXXXXXXXXXXXXXXXXXXXXXOXXXO$$$$$$$$$",
"$$$$$$$$OXXXXOXXXXXXXXXXXXXXXXXXXXXXXXXXXXXXXXXXXXXXXXXO$$$$$$$$",
"$$$$$$$$OX.XXXXXXXXXXXXXXXXXXXXXXXXXXXXXXXXXXXXXX.XXX.XO$$$$$$$$",
"$$$$$$$$OXXX.XXXXXXXXXXXX.XXXXXXXXXXXXXXXXXXXXXXXXXOXOXO$$$$$$$$",
"$$$$$$$$$OXOXXXXX..X.XXXXXXX.XXXXXXXX.XXXXXX..XXXXXXXXO$$$$$$$$$",
"$$$$$$$$$@...XXXXXXXXXXOXXXXXXOXXXXXXXOOXXXXXXXXOXX...O$$$$$$$$$",
"$$$$$$$$$$OOO.O.................O..............O...OOO$$$$$$$$$$",
"$$$$$$$$$$$$$OOOOOOOOOOOOOOOOOOOOOOOOOOOOOOOOOOOOOO$$$$$$$$$$$$$",
"$$$$$$$$$$$$                                        $$$$$$$$$$$$",
"$$$$$$$$$$$$$$                                    $$$$$$$$$$$$$$",
"$$$$$$$$$$$$$$$$$                              $$$$$$$$$$$$$$$$$",
"$$$$$$$$$$$$$$$$$$$$$$$$$$$$$$$$$$$$$$$$$$$$$$$$$$$$$$$$$$$$$$$$",
"$$$$$$$$$$$$$$$$$$$$$$$$$$$$$$$$$$$$$$$$$$$$$$$$$$$$$$$$$$$$$$$$",
"$$$$$$$$$$$$$$$$$$$$$$$$$$$$$$$$$$$$$$$$$$$$$$$$$$$$$$$$$$$$$$$$",
"$$$$$$$$$$$$$$$$$$$$$$$$$$$$$$$$$$$$$$$$$$$$$$$$$$$$$$$$$$$$$$$$",
"$$$$$$$$$$$$$$$$$$$$$$$$$$$$$$$$$$$$$$$$$$$$$$$$$$$$$$$$$$$$$$$$",
"$$$$$$$$$$$$$$$$$$$$$$$$$$$$$$$$$$$$$$$$$$$$$$$$$$$$$$$$$$$$$$$$",
"$$$$$$$$$$$$$$$$$$$$$$$$$$$$$$$$$$$$$$$$$$$$$$$$$$$$$$$$$$$$$$$$",
"$$$$$$$$$$$$$$$$$$$$$$$$$$$$$$$$$$$$$$$$$$$$$$$$$$$$$$$$$$$$$$$$",
"$$$$$$$$$$$$$$$$$$$$$$$$$$$$$$$$$$$$$$$$$$$$$$$$$$$$$$$$$$$$$$$$",
"$$$$$$$$$$$$$$$$$$$$$$$$$$$$$$$$$$$$$$$$$$$$$$$$$$$$$$$$$$$$$$$$",
"$$$$$$$$$$$$$$$$$$$$$$$$$$$$$$$$$$$$$$$$$$$$$$$$$$$$$$$$$$$$$$$$",
"$$$$$$$$$$$$$$$$$$$$$$$$$$$$$$$$$$$$$$$$$$$$$$$$$$$$$$$$$$$$$$$$"
};
