/* XPM */
static char *result[] = {
/* columns rows colors chars-per-pixel */
"64 64 12 1 ",
"  c #41192B",
". c #C85FD3",
"X c #D373C3",
"o c #C873D3",
"O c #EA93B0",
"+ c #EB8EC2",
"@ c #EB8FC3",
"# c #EC8FC2",
"$ c #EC8FC3",
"% c #F0DDE4",
"& c #F0DEE4",
"* c None",
/* pixels */
"****************************************************************",
"****************************************************************",
"****************************************************************",
"****************************************************************",
"****************************************************************",
"****************************************************************",
"****************************************************************",
"****************************************************************",
"****************************************************************",
"****************************************************************",
"****************************************************************",
"****************************************************************",
"***********************************$$$$$$$$*********************",
"*******************************$$$$$XXXXXX$$$$******************",
"******************************$$XXXXXXXXXXXXX$$*****************",
"****************************$$XXXXXXXXXXXXXXXX$$$***************",
"**************************$$$%XXXXXXXXXXXXXXXXXX$$**************",
"*************************$$%&XXXXXXXXXXXXXXXXXXXX$$*************",
"**************OOOO******$$%%%XXXXXXXXXXXXXXXXXXXXX$$************",
"**************O...OOO*$$$X%%XXXXXXXXXXXXXXXXXXXXXXX$************",
"**************OXXXX.$$O$.XXXXXXXXXXXXXXXXXXXXXXXXXX$$***********",
"***************OOO$$XX$.%XXXXXXXXXXXXXXXXXXXXXXXXXXX$$**********",
"********************$XXXXXXXXXXXXXXXXXXXXXXXXXXXXXXXX$**********",
"*******************O$.XXXXXXXXXXXXXXXXXXXXXXXXXXXXXXX$$*********",
"*******************$.XXXXXXXXXXXXXXXXXXXXXXXXXXXXXXXXX$*********",
"******************$$.XXXXXXXXXXXXXXXXXXXXXXXXXXXXXXXXX$*********",
"*****************$$.XXXXXXXXXXXXXXXXXXXXXXXXXXXXXXXXXX$$********",
"*****************$XXXXXXXXXXXXXXXXXXXXXXXXXXXXXXXX$$XXX$********",
"****************$$.XXXXXXXXXXXXXXXXXXXXXXXXXXXXX.$$$XXX$********",
"***************#$.XXXXXXXXXXXXXXXXXXXXXXXXXXXXXXXXXXXXX$O*******",
"***************X..XXXXXXXXXXXXXXXXXXXXXXXXXXXXXXXXXXXXXX$*******",
"**************+$.XX$XXXXXXXXXXXXXXXXXXXXXXXXXXXXXXXXXXXX$*******",
"**************$.@XXXXXXXXXXXXXXXXXXXXXXXXXXXXXXXXXXXXXXX$*******",
"**************$.XXXXXXXXXXXXXXXXXXXXXXXXXXXXXXXXXXXXXXXX$*******",
"*************$$.XXXXXXXXXXXXXXXXXXXXXXXXXXXXXXXXXXXXXXXX$*******",
"*************$.XXXXXXXXXXXXXXXXXXXXXXXXXXXXXXXXXXXXXXXXX$O******",
"************$$.XXXXXXXXXXXXXXXXXXXXXXXXXXXXXXXXXXXXXXXXXX$******",
"************..$XXXXXXXXXXXXXXXXXXXXXXXXXXXXXXXXXXXXXXXXXX$******",
"************$.XXXXXXXXXXXXXXXXXXXXXXXXXXXXXXXXXXXXXXXXXXX$******",
"***********$$X$XXXXXXXXXXXXXXXXXXXXXXXXXXXXXXXXXXX    XXX$******",
"**********.$.XXXXXXXXXXXXXXXXXXXXXXXXXXXXXXXXXXXX.$$$XXXX$******",
"***********.XXXX$XXXXXXXXXXXXXXXXXXXXXXXXXXXXXXXXXXXXXXXX$******",
"*********X$$XX$XXXXXXXXXXXXXXXXXXXXXXXXXXXXXXXXXXXXXXXXXX$******",
"*******$**...XXXXXXXXXXXXXXXXXXXXXXXXXXXXXXXXXXXXXXXXXXX.$******",
"******.**$$XXXXXXXXXXXXXXXXXXXXXXXXXXXXXXXXXXXXXXXXXXXXX.$******",
"***$***.$$XXXXXXX.XXXXXXXXXXXXXXXXXXXXX.XXX$XXXXXXXXXX..$$******",
"*****$*..X$X$XXXXXX...XXXXXXXX..XXX..XXX...XXXXXXX....$$$*******",
"****X*$$...XXXXXX$XXXXXX$XXX.XXXX$XXXXXXXXXX......$$$$$*********",
"oX*$*$$$$$$.......XX.X.XXX.XXXXX............$$$$$$$*************",
"********.*.$$$$$$$....$...$.....$$$$$$$$$$$$$*******************",
"*****************$@$$$$$$$$$$$$$$*******************************",
"****************************************************************",
"****************************************************************",
"****************************************************************",
"****************************************************************",
"****************************************************************",
"****************************************************************",
"****************************************************************",
"****************************************************************",
"****************************************************************",
"****************************************************************",
"****************************************************************",
"****************************************************************",
"****************************************************************"
};
