/* XPM */
static char *result[] = {
/* columns rows colors chars-per-pixel */
"64 64 8 1 ",
"  c #41192B",
". c #C85FD3",
"X c #D373C3",
"o c #EB8FC3",
"O c #EC8FC3",
"+ c #EC90C3",
"@ c #F0DDE4",
"# c None",
/* pixels */
"################################################################",
"################################################################",
"################################################################",
"################################################################",
"################################################################",
"################################################################",
"################################################################",
"################################################################",
"################################################################",
"################################################################",
"################################################################",
"################################################################",
"################################################################",
"################################################################",
"###########################OOOOOOOOOO###########################",
"########################OOOXXXXXXXXXXOOO########################",
"######################OO@XXXXXXXXXXXXXXXOO######################",
"#####################o@@XXXXXXXXXXXXXXXXXXO#####################",
"###################OO@@@XXXXXXXXXXXXXXXXXXXOO###################",
"##################O@XXXXXXXXXXXXXXXXXXXXXXXXXO##################",
"#########OOO#####OXXXXXXXXXXXXXXXXXXXXXXXXXXXXO#####OOO#########",
"########O..O####OXXXXXXXXXXXXXXXXXXXXXXXXXXXXXXO####O..O########",
"########OXX.O##OXXXXXXXXXXXXXXXXXXXXXXXXXXXXXXXXO##O.XXO########",
"########OOXX.OOOXXXXXXXXXXXXXXXXXXXXXXXXXXXXXXXXOOO.XXOO########",
"##########OOOOXXXXXXXXXXXXXXXXXXXXXXXXXXXXXXXXXXXXOOOO##########",
"##############OXXXXXXXXXXXXXXXXXXXXXXXXXXXXXXXXXXO##############",
"#############OXXXXXXXXXXXXXXXXXXXXXXXXXXXXXXXXXXX@O#############",
"#############OXXXXXXXXXXOOXXXXXXXXXXXXOOXXXXXXXXX@O#############",
"#############OXXXXXXXX.OOOXXXXXXXXXXXXOOO.XXXXXXX@O#############",
"############OXXXXXXXXXXXXXXXXXXXXXXXXXXXXXXXXXXXXXXO############",
"############OXXXXXXXXXXXXXXXXXXXXXXXXXXXXXXXXXXXXX@O############",
"############OXXXXXXXXXXXXXXXXXXXXXXXXXXXXXXXXXXXXXXO############",
"###########OXXXXXXXXXXXXXXXXXXXXXXXXXXXXXXXXXXXXXXXXO###########",
"###########OXXXXXXXXX  @  XXXXXXXXXXXX@    XXXXXXXXXO###########",
"###########+XXXXXXXXXXX@  XXXXXXXXXXXX@  XXXXXXXXXXXO###########",
"##########OXXXXXXXXXXXX   XXXXXXXXXXXX   XXXXXXXXXXXXO##########",
"##########OXXXXXXXXXXXX   XXXXXXXXXXXX   XXXXXXXXXXXXO##########",
"##########OXXXXXXXXXXXX   XXXXXXXXXXXX   XXXXXXXXXXXXO##########",
"##########OXXXXXXXXXXXX   XXXXXXXXXXXX   XXXXXXXXXXXXO##########",
"#########OXXXXXXXXXXXXX   XXXXXXXXXXXX   XXXXXXXXXXXXXO#########",
"#########OXXXXXXXXXXXX.OOOXXXXXXXXXXXXOOO.XXXXXXXXXXXXO#########",
"#########OXXXXXXXXXXXXXXXXXXXXXXXXXXXXXXXXXXXXXXXXXXXXO#########",
"#########OXXXXXXXXXXXXXXXXXXXX    XXXXXXXXXXXXXXXXXXXXO#########",
"#########OXXXXXXXXXXXXXXXXXXXXXXXXXXXXXXXXXXXXXXXXXXXXO#########",
"#########OXXXXXXXXXXXXXXXXXXXXXXXXXXXXXXXXXXXXXXXXOXXXO#########",
"########OXXXXOXXXXXXXXXXXXXXXXXXXXXXXXXXXXXXXXXXXXXXXXXO########",
"########OX.XXXXXXXXXXXXXXXXXXXXXXXXXXXXXXXXXXXXXX.XXX.XO########",
"########OXXX.XXXXXXXXXXXX.XXXXXXXXXXXXXXXXXXXXXXXXXOXOXO########",
"#######O.XXOXXXXX..X.XXXXXXX.XXXXXXXX.XXXXXX..XXXXXXXXX.O#######",
"######OOO....XXXXXXXXXXOXXXXXXOXXXXXXXOOXXXXXXXXOXX....OOO######",
"#########OOOO.O.................O..............O...OOOO#########",
"#############OOOOOOOOOOOOOOOOOOOOOOOOOOOOOOOOOOOOOO#############",
"################################################################",
"################################################################",
"################################################################",
"################################################################",
"################################################################",
"################################################################",
"################################################################",
"################################################################",
"################################################################",
"################################################################",
"################################################################",
"################################################################"
};
