/* XPM */
static char *result[] = {
/* columns rows colors chars-per-pixel */
"64 64 10 1 ",
"  c #3A2035",
". c #41192B",
"X c #C85FD3",
"o c #D373C3",
"O c #EB8FC3",
"+ c #EC8FC3",
"@ c #ED8FC3",
"# c #EC90C3",
"$ c #F0DDE4",
"% c None",
/* pixels */
"%%%%%%%%%%%%%%%%%%%%%%%%%%%%%%%%%%%%%%%%%%%%%%%%%%%%%%%%%%%%%%%%",
"%%%%%%%%%%%%%%%%%%%%%%%%%%%%%%%%%%%%%%%%%%%%%%%%%%%%%%%%%%%%%%%%",
"%%%%%%%%%%%%%%%%%%%%%%%%%%%%%%%%%%%%%%%%%%%%%%%%%%%%%%%%%%%%%%%%",
"%%%%%%%%%%%%%%%%%%%%%%%%%%%%%%%%%%%%%%%%%%%%%%%%%%%%%%%%%%%%%%%%",
"%%%%%%%%%%%%%%%%%%%%%%%%%%%%%%%%%%%%%%%%%%%%%%%%%%%%%%%%%%%%%%%%",
"%%%%%%%%%%%%%%%%%%%%%%%%%%%%%%%%%%%%%%%%%%%%%%%%%%%%%%%%%%%%%%%%",
"%%%%%%%%%%%%%%%%%%%%%%%%%%%++++++++++%%%%%%%%%%%%%%%%%%%%%%%%%%%",
"%%%%%%%%%%%%%%%%%%%%%%%%+++oooooooooo+++%%%%%%%%%%%%%%%%%%%%%%%%",
"%%%%%%%%%%%%%%%%%%%%%%++$ooooooooooooooo++%%%%%%%%%%%%%%%%%%%%%%",
"%%%%%%%%%%%%%%%%%%%%%O$$oooooooooooooooooo+%%%%%%%%%%%%%%%%%%%%%",
"%%%%%%%%%%%%%%%%%%%++$$$ooooooooooooooooooo++%%%%%%%%%%%%%%%%%%%",
"%%%%%%%%%%%%%%%%%%+$ooooooooooooooooooooooooo+%%%%%%%%%%%%%%%%%%",
"%%%%%%%%%%%%%%%%%+oooooooooooooooooooooooooooo+%%%%%%%%%%%%%%%%%",
"%%%%%%%%%%%%%%%%+oooooooooooooooooooooooooooooo+%%%%%%%%%%%%%%%%",
"%%%%%%%%%%%%%%%+oooooooooooooooooooooooooooooooo+%%%%%%%%%%%%%%%",
"%%%%%%%%%%%%%+++oooooooooooooooooooooooooooooooo+++%%%%%%%%%%%%%",
"%%%%%%%%%@+++oooooooooooooooooooooooooooooooooooooo++++%%%%%%%%%",
"%%%%%%%%+XXXX%+oooooooooooooooooooooooooooooooooo+%XXXX+%%%%%%%%",
"%%%%%%%%+oo+%+ooooooooooooooooooooooooooooooooooo$+%+oo+%%%%%%%%",
"%%%%%%%%%++%%+oooooooooo++oooooooooooo++ooooooooo$+%%++%%%%%%%%%",
"%%%%%%%%%%%%%+ooooooooX+++oooooooooooo+++Xooooooo$+%%%%%%%%%%%%%",
"%%%%%%%%%%%%+oooooooooooooooooooooooooooooooooooooo+%%%%%%%%%%%%",
"%%%%%%%%%%%%+ooooooooooooooooooooooooooooooooooooo$+%%%%%%%%%%%%",
"%%%%%%%%%%%%+oooooooooooooooooooooooooooooooooooooo+%%%%%%%%%%%%",
"%%%%%%%%%%%+oooooooooooooooooooooooooooooooooooooooo+%%%%%%%%%%%",
"%%%%%%%%%%%+oooooooooooooooooooooooooooooooooooooooo+%%%%%%%%%%%",
"%%%%%%%%%%%#oooooooooooooooooooooooooooooooooooooooo+%%%%%%%%%%%",
"%%%%%%%%%%+oooooooooo..$..oooooooooooo$....oooooooooo+%%%%%%%%%%",
"%%%%%%%%%%+oooooooooooo...oooooooooooo...oooooooooooo+%%%%%%%%%%",
"%%%%%%%%%%+oooooooooooo...oooooooooooo...oooooooooooo+%%%%%%%%%%",
"%%%%%%%%%%+oooooooooooo...oooooooooooo...oooooooooooo+%%%%%%%%%%",
"%%%%%%%%%+ooooooooooooo...oooooooooooo...ooooooooooooo+%%%%%%%%%",
"%%%%%%%%%+ooooooooooooX+++oooooooooooo+++Xoooooooooooo+%%%%%%%%%",
"%%%%%%%%%+oooooooooooooooooooo....oooooooooooooooooooo+%%%%%%%%%",
"%%%%%%%%%+oooooooooooooooooooooooooooooooooooooooooooo+%%%%%%%%%",
"%%%%%%%%%+oooooooooooooooooooooooooooooooooooooooooooo+%%%%%%%%%",
"%%%%%%%%%+oooooooooooooooooooooooooooooooooooooooo+ooo+%%%%%%%%%",
"%%%%%%%%%+Xoo+oooooooooooooooooooooooooooooooooooooooX+%%%%%%%%%",
"%%%%%%%%%o+ooooooooooooooooooooooooooooooooooooooXooo+%%%%%%%%%%",
"%%%%%%%%%%+XXooooooooooooXooooooooooooooooooooooooo+X+%%%%%%%%%%",
"%%%%%%%%%%%+XooooXXoXoooooooXooooooooXooooooXXoooooX+%%%%%%%%%%%",
"%%%%%%%%%%%%+XXoooooooo+oooooo+ooooooo++oooooooo+XX+%%%%%%%%%%%%",
"%%%%%%%%%%%%%++XXooooooooooooooo+ooooooooooooooXX++%%%%%%%%%%%%%",
"%%%%%%%%%%%%%%%++XXXXXXXXXXXXXXXXXXXXXXXXXXXXXX++%%%%%%%%%%%%%%%",
"%%%%%%%%%%%%%%%%%++++++++++++++++++++++++++++++%%%%%%%%%%%%%%%%%",
"%%%%%%%%%%%%%%%%%%%%%%%%%%%%%%%%%%%%%%%%%%%%%%%%%%%%%%%%%%%%%%%%",
"%%%%%%%%%%%%%%%%%%%%%%%%%%%%%%%%%%%%%%%%%%%%%%%%%%%%%%%%%%%%%%%%",
"%%%%%%%%%%%%%%%%%%%%%%%%%%%%%%%%%%%%%%%%%%%%%%%%%%%%%%%%%%%%%%%%",
"%%%%%%%%%%%%%%%%%%%%                        %%%%%%%%%%%%%%%%%%%%",
"%%%%%%%%%%%%%%%%%%                            %%%%%%%%%%%%%%%%%%",
"%%%%%%%%%%%%%%%%%%%                          %%%%%%%%%%%%%%%%%%%",
"%%%%%%%%%%%%%%%%%%%%%                      %%%%%%%%%%%%%%%%%%%%%",
"%%%%%%%%%%%%%%%%%%%%%%%%%%%%%%%%%%%%%%%%%%%%%%%%%%%%%%%%%%%%%%%%",
"%%%%%%%%%%%%%%%%%%%%%%%%%%%%%%%%%%%%%%%%%%%%%%%%%%%%%%%%%%%%%%%%",
"%%%%%%%%%%%%%%%%%%%%%%%%%%%%%%%%%%%%%%%%%%%%%%%%%%%%%%%%%%%%%%%%",
"%%%%%%%%%%%%%%%%%%%%%%%%%%%%%%%%%%%%%%%%%%%%%%%%%%%%%%%%%%%%%%%%",
"%%%%%%%%%%%%%%%%%%%%%%%%%%%%%%%%%%%%%%%%%%%%%%%%%%%%%%%%%%%%%%%%",
"%%%%%%%%%%%%%%%%%%%%%%%%%%%%%%%%%%%%%%%%%%%%%%%%%%%%%%%%%%%%%%%%",
"%%%%%%%%%%%%%%%%%%%%%%%%%%%%%%%%%%%%%%%%%%%%%%%%%%%%%%%%%%%%%%%%",
"%%%%%%%%%%%%%%%%%%%%%%%%%%%%%%%%%%%%%%%%%%%%%%%%%%%%%%%%%%%%%%%%",
"%%%%%%%%%%%%%%%%%%%%%%%%%%%%%%%%%%%%%%%%%%%%%%%%%%%%%%%%%%%%%%%%",
"%%%%%%%%%%%%%%%%%%%%%%%%%%%%%%%%%%%%%%%%%%%%%%%%%%%%%%%%%%%%%%%%",
"%%%%%%%%%%%%%%%%%%%%%%%%%%%%%%%%%%%%%%%%%%%%%%%%%%%%%%%%%%%%%%%%",
"%%%%%%%%%%%%%%%%%%%%%%%%%%%%%%%%%%%%%%%%%%%%%%%%%%%%%%%%%%%%%%%%"
};
