/* XPM */
static char *result[] = {
/* columns rows colors chars-per-pixel */
"64 64 9 1 ",
"  c #41192B",
". c #C85FD3",
"X c #D373C3",
"o c #EB8FC3",
"O c #EC8FC3",
"+ c #ED8FC3",
"@ c #EC90C3",
"# c #F0DDE4",
"$ c None",
/* pixels */
"$$$$$$$$$$$$$$$$$$$$$$$$$$$$$$$$$$$$$$$$$$$$$$$$$$$$$$$$$$$$$$$$",
"$$$$$$$$$$$$$$$$$$$$$$$$$$$$$$$$$$$$$$$$$$$$$$$$$$$$$$$$$$$$$$$$",
"$$$$$$$$$$$$$$$$$$$$$$$$$$$$$$$$$$$$$$$$$$$$$$$$$$$$$$$$$$$$$$$$",
"$$$$$$$$$$$$$$$$$$$$$$$$$$$$$$$$$$$$$$$$$$$$$$$$$$$$$$$$$$$$$$$$",
"$$$$$$$$$$$$$$$$$$$$$$$$$$$$$$$$$$$$$$$$$$$$$$$$$$$$$$$$$$$$$$$$",
"$$$$$$$$$$$$$$$$$$$$$$$$$$$$$$$$$$$$$$$$$$$$$$$$$$$$$$$$$$$$$$$$",
"$$$$$$$$$$$$$$$$$$$$$$$$$$$$$$$$$$$$$$$$$$$$$$$$$$$$$$$$$$$$$$$$",
"$$$$$$$$$$$$$$$$$$$$$$$$$$$$$$$$$$$$$$$$$$$$$$$$$$$$$$$$$$$$$$$$",
"$$$$$$$$$$$$$$$$$$$$$$$$$$$$$$$$$$$$$$$$$$$$$$$$$$$$$$$$$$$$$$$$",
"$$$$$$$$$$$$$$$$$$$$$$$$$$$$$$$$$$$$$$$$$$$$$$$$$$$$$$$$$$$$$$$$",
"$$$$$$$$$$$$$$$$$$$$$$$$$$$$$$$$$$$$$$$$$$$$$$$$$$$$$$$$$$$$$$$$",
"$$$$$$$$$$$$$$$$$$$$$$$$$$$$$$$$$$$$$$$$$$$$$$$$$$$$$$$$$$$$$$$$",
"$$$$$$$$$$$$$$$$$$$$$$$$$$$$$$$$$$$$$$$$$$$$$$$$$$$$$$$$$$$$$$$$",
"$$$$$$$$$$$$$$$$$$$$$$$$$$$$$$$$$$$$$$$$$$$$$$$$$$$$$$$$$$$$$$$$",
"$$$$$$$$$$$$$$$$$$$$$$$$$$$OOOOOOOOOO$$$$$$$$$$$$$$$$$$$$$$$$$$$",
"$$$$$$$$$$$$$$$$$$$$$$$$OOOXXXXXXXXXXOOO$$$$$$$$$$$$$$$$$$$$$$$$",
"$$$$$$$$$$$$$$$$$$$$$$OO#XXXXXXXXXXXXXXXOO$$$$$$$$$$$$$$$$$$$$$$",
"$$$$$$$$$$$$$$$$$$$$$o##XXXXXXXXXXXXXXXXXXO$$$$$$$$$$$$$$$$$$$$$",
"$$$$$$$$$$$$$$$$$$$OO###XXXXXXXXXXXXXXXXXXXOO$$$$$$$$$$$$$$$$$$$",
"$$$$$$$$$$$$$$$$$$O#XXXXXXXXXXXXXXXXXXXXXXXXXO$$$$$$$$$$$$$$$$$$",
"$$$$$$$$$$$$$$$$$OXXXXXXXXXXXXXXXXXXXXXXXXXXXXO$$$$$$$$$$$$$$$$$",
"$$$$$$$$$$$$$$$$OXXXXXXXXXXXXXXXXXXXXXXXXXXXXXXO$$$$$$$$$$$$$$$$",
"$$$$$$$$$$$$$$$OXXXXXXXXXXXXXXXXXXXXXXXXXXXXXXXXO$$$$$$$$$$$$$$$",
"$$$$$$$$$$$$$OOOXXXXXXXXXXXXXXXXXXXXXXXXXXXXXXXXOOO$$$$$$$$$$$$$",
"$$$$$$$$$OOOOOXXXXXXXXXXXXXXXXXXXXXXXXXXXXXXXXXXXXOOOOO$$$$$$$$$",
"$$$$$$$$O....$OXXXXXXXXXXXXXXXXXXXXXXXXXXXXXXXXXXO$....+$$$$$$$$",
"$$$$$$$$OXXO$OXXXXXXXXXXXXXXXXXXXXXXXXXXXXXXXXXXX#O$OXXO$$$$$$$$",
"$$$$$$$$$OO$$OXXXXXXXXXXOOXXXXXXXXXXXXOOXXXXXXXXX#O$$OO$$$$$$$$$",
"$$$$$$$$$$$$$OXXXXXXXX.OOOXXXXXXXXXXXXOOO.XXXXXXX#O$$$$$$$$$$$$$",
"$$$$$$$$$$$$OXXXXXXXXXXXXXXXXXXXXXXXXXXXXXXXXXXXXXXO$$$$$$$$$$$$",
"$$$$$$$$$$$$OXXXXXXXXXXXXXXXXXXXXXXXXXXXXXXXXXXXXX#O$$$$$$$$$$$$",
"$$$$$$$$$$$$OXXXXXXXXXXXXXXXXXXXXXXXXXXXXXXXXXXXXXXO$$$$$$$$$$$$",
"$$$$$$$$$$$OXXXXXXXXXXXXXXXXXXXXXXXXXXXXXXXXXXXXXXXXO$$$$$$$$$$$",
"$$$$$$$$$$$OXXXXXXXXX  #  XXXXXXXXXXXX#    XXXXXXXXXO$$$$$$$$$$$",
"$$$$$$$$$$$@XXXXXXXXXXX#  XXXXXXXXXXXX#  XXXXXXXXXXXO$$$$$$$$$$$",
"$$$$$$$$$$OXXXXXXXXXXXX   XXXXXXXXXXXX   XXXXXXXXXXXXO$$$$$$$$$$",
"$$$$$$$$$$OXXXXXXXXXXXX   XXXXXXXXXXXX   XXXXXXXXXXXXO$$$$$$$$$$",
"$$$$$$$$$$OXXXXXXXXXXXX   XXXXXXXXXXXX   XXXXXXXXXXXXO$$$$$$$$$$",
"$$$$$$$$$$OXXXXXXXXXXXX   XXXXXXXXXXXX   XXXXXXXXXXXXO$$$$$$$$$$",
"$$$$$$$$$OXXXXXXXXXXXXX   XXXXXXXXXXXX   XXXXXXXXXXXXXO$$$$$$$$$",
"$$$$$$$$$OXXXXXXXXXXXX.OOOXXXXXXXXXXXXOOO.XXXXXXXXXXXXO$$$$$$$$$",
"$$$$$$$$$OXXXXXXXXXXXXXXXXXXXXXXXXXXXXXXXXXXXXXXXXXXXXO$$$$$$$$$",
"$$$$$$$$$OXXXXXXXXXXXXXXXXXXXX    XXXXXXXXXXXXXXXXXXXXO$$$$$$$$$",
"$$$$$$$$$OXXXXXXXXXXXXXXXXXXXXXXXXXXXXXXXXXXXXXXXXXXXXO$$$$$$$$$",
"$$$$$$$$$OXXXXXXXXXXXXXXXXXXXXXXXXXXXXXXXXXXXXXXXXOXXXO$$$$$$$$$",
"$$$$$$$$OXXXXOXXXXXXXXXXXXXXXXXXXXXXXXXXXXXXXXXXXXXXXXXO$$$$$$$$",
"$$$$$$$$OX.XXXXXXXXXXXXXXXXXXXXXXXXXXXXXXXXXXXXXX.XXX.XO$$$$$$$$",
"$$$$$$$$OXXX.XXXXXXXXXXXX.XXXXXXXXXXXXXXXXXXXXXXXXXOXOXO$$$$$$$$",
"$$$$$$$O.XXOXXXXX..X.XXXXXXX.XXXXXXXX.XXXXXX..XXXXXXXXX.O$$$$$$$",
"$$$$$$OOO....XXXXXXXXXXOXXXXXXOXXXXXXXOOXXXXXXXXOXX....OOO$$$$$$",
"$$$$$$$$$OOOO.O.................O..............O...OOOO$$$$$$$$$",
"$$$$$$$$$$$$$OOOOOOOOOOOOOOOOOOOOOOOOOOOOOOOOOOOOOO$$$$$$$$$$$$$",
"$$$$$$$$$$$$$$$$$$$$$$$$$$$$$$$$$$$$$$$$$$$$$$$$$$$$$$$$$$$$$$$$",
"$$$$$$$$$$$$$$$$$$$$$$$$$$$$$$$$$$$$$$$$$$$$$$$$$$$$$$$$$$$$$$$$",
"$$$$$$$$$$$$$$$$$$$$$$$$$$$$$$$$$$$$$$$$$$$$$$$$$$$$$$$$$$$$$$$$",
"$$$$$$$$$$$$$$$$$$$$$$$$$$$$$$$$$$$$$$$$$$$$$$$$$$$$$$$$$$$$$$$$",
"$$$$$$$$$$$$$$$$$$$$$$$$$$$$$$$$$$$$$$$$$$$$$$$$$$$$$$$$$$$$$$$$",
"$$$$$$$$$$$$$$$$$$$$$$$$$$$$$$$$$$$$$$$$$$$$$$$$$$$$$$$$$$$$$$$$",
"$$$$$$$$$$$$$$$$$$$$$$$$$$$$$$$$$$$$$$$$$$$$$$$$$$$$$$$$$$$$$$$$",
"$$$$$$$$$$$$$$$$$$$$$$$$$$$$$$$$$$$$$$$$$$$$$$$$$$$$$$$$$$$$$$$$",
"$$$$$$$$$$$$$$$$$$$$$$$$$$$$$$$$$$$$$$$$$$$$$$$$$$$$$$$$$$$$$$$$",
"$$$$$$$$$$$$$$$$$$$$$$$$$$$$$$$$$$$$$$$$$$$$$$$$$$$$$$$$$$$$$$$$",
"$$$$$$$$$$$$$$$$$$$$$$$$$$$$$$$$$$$$$$$$$$$$$$$$$$$$$$$$$$$$$$$$",
"$$$$$$$$$$$$$$$$$$$$$$$$$$$$$$$$$$$$$$$$$$$$$$$$$$$$$$$$$$$$$$$$"
};
