/* XPM */
static char *result[] = {
/* columns rows colors chars-per-pixel */
"64 64 8 1 ",
"  c #41192B",
". c #C85FD3",
"X c #D373C3",
"o c #EB8FC3",
"O c #EC8FC3",
"+ c #EC90C3",
"@ c #F0DDE4",
"# c None",
/* pixels */
"################################################################",
"################################################################",
"################################################################",
"################################################################",
"################################################################",
"################################################################",
"################################################################",
"################################################################",
"################################################################",
"################################################################",
"################################################################",
"################################################################",
"################################################################",
"################################################################",
"###########################OOOOOOOOOO###########################",
"########################OOOXXXXXXXXXXOOO########################",
"######################OO@XXXXXXXXXXXXXXXOO######################",
"#####################o@@XXXXXXXXXXXXXXXXXXO#####################",
"###################OO@@@XXXXXXXXXXXXXXXXXXXOO###################",
"##################O@XXXXXXXXXXXXXXXXXXXXXXXXXO##################",
"#################OXXXXXXXXXXXXXXXXXXXXXXXXXXXXO#################",
"################OXXXXXXXXXXXXXXXXXXXXXXXXXXXXXXO################",
"########oOOOO##OXXXXXXXXXXXXXXXXXXXXXXXXXXXXXXXXO##OOOOO########",
"########O....OOOXXXXXXXXXXXXXXXXXXXXXXXXXXXXXXXXOOO....O########",
"########OXXXOOXXXXXXXXXXXXXXXXXXXXXXXXXXXXXXXXXXXXOOXXXO########",
"#########OOO##OXXXXXXXXXXXXXXXXXXXXXXXXXXXXXXXXXXO##OOO#########",
"#############OXXXXXXXXXXXXXXXXXXXXXXXXXXXXXXXXXXX@O#############",
"#############OXXXXXXXXXXOOXXXXXXXXXXXXOOXXXXXXXXX@O#############",
"#############OXXXXXXXX.OOOXXXXXXXXXXXXOOO.XXXXXXX@O#############",
"############OXXXXXXXXXXXXXXXXXXXXXXXXXXXXXXXXXXXXXXO############",
"############OXXXXXXXXXXXXXXXXXXXXXXXXXXXXXXXXXXXXX@O############",
"############OXXXXXXXXXXXXXXXXXXXXXXXXXXXXXXXXXXXXXXO############",
"###########OXXXXXXXXXXXXXXXXXXXXXXXXXXXXXXXXXXXXXXXXO###########",
"###########OXXXXXXXXXXXXXXXXXXXXXXXXXXXXXXXXXXXXXXXXO###########",
"###########+XXXXXXXXXXXXXXXXXXXXXXXXXXXXXXXXXXXXXXXXO###########",
"##########OXXXXXXXXXXXXXXXXXXXXXXXXXXXXXXXXXXXXXXXXXXO##########",
"##########OXXXXXXXXXXXXXXXXXXXXXXXXXXXXXXXXXXXXXXXXXXO##########",
"##########OXXXXXXXXXXXXXXXXXXXXXXXXXXXXXXXXXXXXXXXXXXO##########",
"##########OXXXXXXXXXXXXXXXXXXXXXXXXXXXXXXXXXXXXXXXXXXO##########",
"#########OXXXXXXXXXXX     XXXXXXXXXXXX     XXXXXXXXXXXO#########",
"#########OXXXXXXXXXXXX.OOOXXXXXXXXXXXXOOO.XXXXXXXXXXXXO#########",
"#########OXXXXXXXXXXXXXXXXXXXXXXXXXXXXXXXXXXXXXXXXXXXXO#########",
"#########OXXXXXXXXXXXXXXXXXXXX    XXXXXXXXXXXXXXXXXXXXO#########",
"#########OXXXXXXXXXXXXXXXXXXXXXXXXXXXXXXXXXXXXXXXXXXXXO#########",
"#########OXXXXXXXXXXXXXXXXXXXXXXXXXXXXXXXXXXXXXXXXOXXXO#########",
"########OXXXXOXXXXXXXXXXXXXXXXXXXXXXXXXXXXXXXXXXXXXXXXXO########",
"########OX.XXXXXXXXXXXXXXXXXXXXXXXXXXXXXXXXXXXXXX.XXX.XO########",
"########OXXX.XXXXXXXXXXXX.XXXXXXXXXXXXXXXXXXXXXXXXXOXOXO########",
"#######O.XXOXXXXX..X.XXXXXXX.XXXXXXXX.XXXXXX..XXXXXXXXX.O#######",
"######OOO....XXXXXXXXXXOXXXXXXOXXXXXXXOOXXXXXXXXOXX....OOO######",
"#########OOOO.O.................O..............O...OOOO#########",
"#############OOOOOOOOOOOOOOOOOOOOOOOOOOOOOOOOOOOOOO#############",
"################################################################",
"################################################################",
"################################################################",
"################################################################",
"################################################################",
"################################################################",
"################################################################",
"################################################################",
"################################################################",
"################################################################",
"################################################################",
"################################################################"
};
