/* XPM */
static char *result[] = {
/* columns rows colors chars-per-pixel */
"64 64 8 1 ",
"  c #41192B",
". c #4E337F",
"X c #A47FFF",
"o c #F878C8",
"O c #C9B1FF",
"+ c #CAB1FF",
"@ c white",
"# c None",
/* pixels */
"################################################################",
"################################################################",
"################################################################",
"################################################################",
"################################################################",
"################################################################",
"################################################################",
"################################################################",
"################################################################",
"################################################################",
"################################################################",
"################################################################",
"################################################################",
"################################################################",
"################################################################",
"################################################################",
"################################################################",
"##################################################@#############",
"################################################################",
"################################################################",
"################################################################",
"##########################@@@@@@@@##############################",
"########################@@+OOOOOOO@@############################",
"#######################@OOO+OOOOOOO+@###########################",
"######################@OOOXXXXXXXXOOO@##########################",
"#####################@OOXXXXXXXXXXXXOO@#########################",
"#####@##############@OOXXXXXXXXXXXXXXOO@########################",
"########@@##########@OOXXXXXXXXXXXXXXOO@########################",
"#######@##@########@O+XXXXXXXXXXXXXXXX+O@#######################",
"#######@##@########@O+XXXXXXXXXXXXXXXXOO@#######################",
"########@@#########@OOXXXXXXXXXXXXXXXXO+@#######################",
"###################@O+XXXXXXXXXXXXXXXXOO@#######################",
"###################@O+XX....XXXX....XX+O@#######################",
"###################@+OXX....XXXX....XXOO@#######################",
"###################@OOXoo...XXXX...ooXOO@#######################",
"###################@OOXXXXXXXXXXXXXXXXOO@#######################",
"####################@O+XXXXXXXXXXXXXXOO@########################",
"####################@OOXXXXXXXXXXXXXXO+@########################",
"#####################@OOXXXXXXXXXXXXOO@#########################",
"######################@++OXXXXXXXX++O@##########################",
"#######################@OO+OOOOOOOOO@###########################",
"########################@@OOOOOOOO@@############################",
"##########################@@@@@@@@##############################",
"################################################################",
"################################################################",
"##############################################@@################",
"#############################################@##@###############",
"#############################################@##@###############",
"##############################################@@################",
"################################################################",
"################################################################",
"################################################################",
"################################################################",
"################################################################",
"################################################################",
"################################################################",
"################################################################",
"################################################################",
"#########################          #############################",
"#######################              ###########################",
"########################            ############################",
"##########################        ##############################",
"################################################################",
"################################################################"
};
