/* XPM */
static char *result[] = {
/* columns rows colors chars-per-pixel */
"64 64 6 1 ",
"  c #41192B",
". c #4E337F",
"X c #A47FFF",
"o c #F878C8",
"O c white",
"+ c None",
/* pixels */
"++++++++++++++++++++++++++++++++++++++++++++++++++++++++++++++++",
"++++++++++++++++++++++++++++++++++++++++++++++++++++++++++++++++",
"++++++++++++++++++++++++++++++++++++++++++++++++++++++++++++++++",
"++++++++++++++++++++++++++++++++++++++++++++++++++++++++++++++++",
"++++++++++++++++++++++++++++++++++++++++++++++++++++++++++++++++",
"++++++++++++++++++++++++++++++++++++++++++++++++++++++++++++++++",
"++++++++++++++++++++++++++++++++++++++++++++++++++++++++++++++++",
"++++++++++++++++++++++++++++++++++++++++++++++++++++++++++++++++",
"++++++++++++++++++++++++++++++++++++++++++++++++++++++++++++++++",
"++++++++++++++++++++++++++++++++++++++++++++++++++++++++++++++++",
"++++++++++++++++++++++++++++++++++++++++++++++++++++++++++++++++",
"++++++++++++++++++++++++++++++++++++++++++++++++++++++++++++++++",
"++++++++++++++++++++++++++++++++++++++++++++++++++++++++++++++++",
"++++++++++++++++++++++++++++++++++++++++++++++++++++++++++++++++",
"++++++++++++++++++++++++++++++++++++++++++++++++O+++++++++++++++",
"++++++++++++++++++++++++++++++++++++++++++++++++++++++++++++++++",
"+++++++++++++++++++++++++++OOOOOOOOOO+++++++++++++++++++++++++++",
"+++++++++++++++++++++++++OO++++++++++OO+++++++++++++++++++++++++",
"++++++++++++++++++++++++O+++OOOOOOOO+++O+++++++++++++++O++++++++",
"+++++++++++++++++++++++O++OOXXXXXXXXOO++O+++++++++++++++++++++++",
"++++++++++++++++++++++O++OXXXXXXXXXXXXO++O++++++++++++++++++++++",
"+++++++++++++++++++++O++OXXXXXXXXXXXXXXO++O+++++++++++++++++++++",
"++++++++++++++++++++O++OXXXXXXXXXXXXXXXXO++O++++++++++++++++++++",
"++++++++++++++++++++O+OXXXXXXXXXXXXXXXXXXO+O++++++++++++++++++++",
"+++++++++++++++++++O++OXXXXXXXXXXXXXXXXXXO++O+++++++++++++++++++",
"+++++++++OO++++++++O+OXXXXXXXXXXXXXXXXXXXXO+O+++++++++++++++++++",
"++++++++O++O+++++++O+OXXXXXXXXXXXXXXXXXXXXO+O+++++++++++++++++++",
"++++++++O++O+++++++O+OXXXXXXXXXXXXXXXXXXXXO+O+++++++++++++++++++",
"+++++++++OO++++++++O+OXXXXXXXXXXXXXXXXXXXXO+O+++++++++++++++++++",
"+++++++++++++++++++O+OXXXX....XXXX....XXXXO+O+++++++++++++++++++",
"+++++++++++++++++++O+OXXXX....XXXX....XXXXO+O+++++++++++++++++++",
"+++++++++++++++++++O+OXXXoo...XXXX...ooXXXO+O+++++++++++++++++++",
"+++++++++++++++++++O+OXXXXXXXXXXXXXXXXXXXXO+O+++++++++++++++++++",
"+++++++++++++++++++O++OXXXXXXXXXXXXXXXXXXO++O+++++++++++++++++++",
"++++++++++++++++++++O+OXXXXXXXXXXXXXXXXXXO+O++++++++++++++++++++",
"++++++++++++++++++++O++OXXXXXXXXXXXXXXXXO++O++++++++++++++++++++",
"+++++++++++++++++++++O++OXXXXXXXXXXXXXXO++O+++++++++++++++++++++",
"++++++++++++++++++++++O++OXXXXXXXXXXXXO++O++++++++++++++++++++++",
"+++++++++++++++++++++++O++OOXXXXXXXXOO++O+++++++++++++++++++++++",
"++++++++++++++++++++++++O+++OOOOOOOO+++O++++++++++++++++++++++++",
"+++++++++++++++++++++++++OO++++++++++OO+++++++++++++++++++++++++",
"+++++++++++++++++++++++++++OOOOOOOOOO+++++++++++++++++++++++++++",
"++++++++++++++++++++++++++++++++++++++++++++++++++++++++++++++++",
"++++++++++++++++++++++++++++++++++++++++++++++++++++++++++++++++",
"++++++++++++++++++++++++++++++++++++++++++++++++++++++++++++++++",
"++++++++++++++++++++++++++++++++++++++++++++++++++++++++++++++++",
"++++++++++++++++++++++++++++++++++++++++++++++++++++++++++++++++",
"++++++++++++++++++++++++++++++++++++++++++++++++++++++++++++++++",
"++++++++++++++++++++++++++++++++++++++++++++++++++++++++++++++++",
"++++++++++++++++++++++++++++++++++++++++++++++++++++++++++++++++",
"++++++++++++++++++++++++++++++++++++++++++++++++OO++++++++++++++",
"+++++++++++++++++++++++++++++++++++++++++++++++O++O+++++++++++++",
"+++++++++++++++++++++++++++++++++++++++++++++++O++O+++++++++++++",
"++++++++++++++++++++++++++++++++++++++++++++++++OO++++++++++++++",
"++++++++++++++++++++++++++++++++++++++++++++++++++++++++++++++++",
"++++++++++++++++++++++++++++++++++++++++++++++++++++++++++++++++",
"++++++++++++++++++++++++++++++++++++++++++++++++++++++++++++++++",
"++++++++++++++++++++++++++++++++++++++++++++++++++++++++++++++++",
"++++++++++++++++++++++++++++        ++++++++++++++++++++++++++++",
"++++++++++++++++++++++++++            ++++++++++++++++++++++++++",
"+++++++++++++++++++++++++++          +++++++++++++++++++++++++++",
"+++++++++++++++++++++++++++++      +++++++++++++++++++++++++++++",
"++++++++++++++++++++++++++++++++++++++++++++++++++++++++++++++++",
"++++++++++++++++++++++++++++++++++++++++++++++++++++++++++++++++"
};
