/* XPM */
static char *result[] = {
/* columns rows colors chars-per-pixel */
"64 64 8 1 ",
"  c #41192A",
". c #41192B",
"X c #41192C",
"o c #4E337F",
"O c #A47FFF",
"+ c #F878C8",
"@ c white",
"# c None",
/* pixels */
"################################################################",
"################################################################",
"################################################################",
"################################################################",
"################################################################",
"################################################################",
"################################################################",
"################################################################",
"################################################################",
"################################################################",
"################################################################",
"################################################################",
"################################################################",
"################################################################",
"################################################@###############",
"################################################################",
"#############################@@@@@@@@@@#########################",
"###########################@@##########@@#######################",
"##########################@###@@@@@@@@###@#############@########",
"#########################@##@@OOOOOOOO@@##@#####################",
"########################@##@OOOOOOOOOOOO@##@####################",
"#######################@##@OOOOOOOOOOOOOO@##@###################",
"######################@##@OOOOOOOOOOOOOOOO@##@##################",
"######################@#@OOOOOOOOOOOOOOOOOO@#@##################",
"#####################@##@OOOOOOOOOOOOOOOOOO@##@#################",
"#########@@##########@#@OOOOOOOOOOOOOOOOOOOO@#@#################",
"########@##@#########@#@OOOOOOOOOOOOOOOOOOOO@#@#################",
"########@##@#########@#@OOOOOOOOOOOOOOOOOOOO@#@#################",
"#########@@##########@#@OOOOOOOOOOOOOOOOOOOO@#@#################",
"#####################@#@OOOOooooOOOOooooOOOO@#@#################",
"#####################@#@OOOOooooOOOOooooOOOO@#@#################",
"#####################@#@OOO++oooOOOOooo++OOO@#@#################",
"#####################@#@OOOOOOOOOOOOOOOOOOOO@#@#################",
"#####################@##@OOOOOOOOOOOOOOOOOO@##@#################",
"######################@#@OOOOOOOOOOOOOOOOOO@#@##################",
"######################@##@OOOOOOOOOOOOOOOO@##@##################",
"#######################@##@OOOOOOOOOOOOOO@##@###################",
"########################@##@OOOOOOOOOOOO@##@####################",
"#########################@##@@OOOOOOOO@@##@#####################",
"##########################@###@@@@@@@@###@######################",
"###########################@@##########@@#######################",
"#############################@@@@@@@@@@#########################",
"################################################################",
"################################################################",
"################################################################",
"################################################################",
"################################################################",
"################################################################",
"################################################################",
"################################################################",
"################################################@@##############",
"###############################################@##@#############",
"###############################################@##@#############",
"################################################@@##############",
"################################################################",
"################################################################",
"################################################################",
"################################################################",
"##############################........##########################",
"############################X...........########################",
"#############################..........#########################",
"###############################... . ###########################",
"################################################################",
"################################################################"
};
