/* XPM */
static char *c4d83e4bb9aa481496a746b7c77981bdYUC8H1fBxNksqOB0[] = {
/* columns rows colors chars-per-pixel */
"64 64 12 1 ",
"  c None",
". c #41192B",
"X c #C85FD3",
"o c #D373C3",
"O c #C873D3",
"+ c #EA93B0",
"@ c #EB8EC2",
"# c #EB8FC3",
"$ c #EC8FC2",
"% c #EC8FC3",
"& c #F0DDE4",
"* c #F0DEE4",
/* pixels */
"                                                                ",
"                                                                ",
"                                                                ",
"                                                                ",
"                                                                ",
"                                                                ",
"                                                                ",
"                                                                ",
"                                                                ",
"                                                                ",
"                                                                ",
"                                                                ",
"                                   %%%%%%%%                     ",
"                               %%%%%oooooo%%%%                  ",
"                              %%ooooooooooooo%%                 ",
"                            %%oooooooooooooooo%%%               ",
"                %%        %%%&oooooooooooooooooo%%              ",
"               %Xo%      %%&&oooooooooooooooooooo%%             ",
"               @Xo%%    %%&&&ooooooooooooooooooooo%%            ",
"                %Xo%% %%%o&&ooooooooooooooooooooooo%            ",
"                %XXX%%+%Xoooooooooooooooooooooooooo%%           ",
"                 %%%oo%X&ooooooooooooooooooooooooooo%%          ",
"                    %oooooooooooooooooooooooooooooooo%          ",
"                   +%Xooooooooooooooooooooooooooooooo%%         ",
"                   %Xooooooooooooooooooooooooooooooooo%         ",
"                  %%Xooooooooooooooooooooooooooooooooo%         ",
"                 %%Xoooooooooooooooooooooooooooooooooo%%        ",
"                 %oooooooooooooooooooooooooooooooo%%ooo%        ",
"                %%XoooooooooooooooooooooooooooooX%%%ooo%        ",
"               %%Xooooooooooooooooooooooooooooooooooooo%+       ",
"               oXXoooooooooooooooooooooooooooooooooooooo%       ",
"              @%Xoo%ooooooooooooooooooooooooooooooooo.oo%       ",
"              %X@ooooooooooooooooooooooooooooooooooo.ooo%       ",
"              %Xoooooooooooooooooooooooooooooooooo.&oooo%       ",
"             %%Xoooooooooooooooooooooooooooooooooo.&oooo%       ",
"             %Xooooooooooooooooooooooooooooooooooo..oooo%+      ",
"            %%Xooooooooooooooooooooooooooooooooooo..ooooo%      ",
"            XX%ooooooooooooooooooooooooooooooooooo..ooooo%      ",
"            %Xoooooooooooooooooooooooooooooooooooo..ooooo%      ",
"           %%o%ooooooooooooooooooooooooooooooooooo..ooooo%      ",
"          X%XooooooooooooooooooooooooooooooooooooX%%%oooo%      ",
"           Xoooo%oooooooooooooooooooooooooooooooooooooooo%      ",
"         o%%oo%oooooooooooooooooooooooooooooooooooooooooo%      ",
"       %  XXXoooooooooooooooooooooooooooooooooooooooooooX%      ",
"      X  %%oooooooooooooooooooooooooooooooooooooooooooooX%      ",
"   %   X%%oooooooXoooooooooooooooooooooXooo%ooooooooooXX%%      ",
"     % XXo%o%ooooooXXXooooooooXXoooXXoooXXXoooooooXXXX%%%       ",
"    o %%XXXoooooo%oooooo%oooXoooo%ooooooooooXXXXXX%%%%%         ",
"Oo % %%%%%%XXXXXXXooXoXoooXoooooXXXXXXXXXXXX%%%%%%%             ",
"        X X%%%%%%%XXXX%XXX%XXXXX%%%%%%%%%%%%%                   ",
"                 %@%%%%%%%%%%%%%%                               ",
"                                                                ",
"                                                                ",
"                                                                ",
"                                                                ",
"                                                                ",
"                                                                ",
"                                                                ",
"                                                                ",
"                                                                ",
"                                                                ",
"                                                                ",
"                                                                ",
"                                                                "
};
