/* XPM */
static char *_f703a2dcb9146fcf91443da8ac887805p6wq1SErVdnp21b[] = {
/* columns rows colors chars-per-pixel */
"64 64 56 1 ",
"  c None",
". c #3A2035",
"X c #3A2036",
"o c #41192B",
"O c #C85FD3",
"+ c #CB65CD",
"@ c #D16FC6",
"# c #D06EC7",
"$ c #D16EC8",
"% c #D26FC9",
"& c #D071C0",
"* c #D273C2",
"= c #D372C3",
"- c #D373C3",
"; c #D473C3",
": c #D374C3",
"> c #D474C3",
", c #D475C3",
"< c #D575C3",
"1 c #D576C3",
"2 c #D676C3",
"3 c #D677C3",
"4 c #D777C3",
"5 c #D170C5",
"6 c #D271C4",
"7 c #D271C5",
"8 c #D272C4",
"9 c #D372C4",
"0 c #D373C5",
"q c #D170C6",
"w c #D270C7",
"e c #D370C7",
"r c #D475C4",
"t c #D574C5",
"y c #D777C4",
"u c #D778C3",
"i c #D878C3",
"p c #D879C3",
"a c #D979C3",
"s c #D97AC3",
"d c #DA7AC3",
"f c #DA7CC2",
"g c #DB7CC3",
"h c #D270C8",
"j c #D370C8",
"k c #D270C9",
"l c #D471CA",
"z c #C961D1",
"x c #E687C6",
"c c #EB8EC3",
"v c #EB8FC3",
"b c #EC8EC3",
"n c #EC8FC3",
"m c #E88BC4",
"M c #EC8FC4",
"N c #F0DDE4",
/* pixels */
"                                                                ",
"                                                                ",
"                                                                ",
"                                                                ",
"                                                                ",
"                                                                ",
"                                                                ",
"                                                                ",
"                                                                ",
"                                    nnnnnnn                     ",
"                                mnnnp>-->>nnnnn                 ",
"                               nn>>>>--------pnn                ",
"                             nnp------------->pnnn              ",
"                           nnN-r--------------->pnn             ",
"                nn        nnN-------------------->nv            ",
"              nnnOn      nnNN-:------------------->n            ",
"              n--OOnnn  nnNN-----------------------nn           ",
"               n---OOnnnn-------------------------->nn          ",
"                nnMnnnnNN--------------------------->n          ",
"                     nrN-----------------------------pn         ",
"                     n--------------------------------n         ",
"                    vn--------------------------------fn        ",
"                    nO--------------------------------pn        ",
"                   vO-------------------------------nn>pn       ",
"                  nnO8---------------------------h-nnn-pn       ",
"                  nO-----------------------------8n----un       ",
"                 nO-8-----------------------------------fn      ",
"                nnOn>----------------------------------->n      ",
"                nOO------------------------------------o-n      ",
"               nO-->--------------------------------ooo->n      ",
"              nO------------------------------------oN-->n      ",
"              nO-O>---------------------------------oo-->nn     ",
"              nO------------------------------------oo----n     ",
"             nO--n----------------------------------oo----n     ",
"             nO-O-----------------------------------oo--->n     ",
"             nn-O-----------------------------------oo>-->n     ",
"            nO-%-----------------------------------Onnn--;n     ",
"            nO-------------------------------------r>>>---n     ",
"          OnO-O------------------------------------------8n     ",
"           nO--------------------------------------------On     ",
"         nnO--O----------------------------->>---------8@8n     ",
"          nO-----------n----n------------------------8@OOOn     ",
"       O nO-O8---------8------------n-n-OO----------OOOnnn      ",
"         nO------nOO----8---------------88---8OOOOOOnOnn        ",
"        nO----->--------OO-----88OO-h--OOOOOOOnOOnnnOO          ",
"      nnOnn--OOOO-lO>------8h%8OOOOOOOnnnnnnnn        n         ",
"     nOOOOOOnnnOOOOOO+zOOOOOOOnnnnxnnn.........nn    O          ",
"    nOOnnnOn  OOnOOnnnnnnOOnnn..........O.....O.....            ",
"n Onn  OO   O O ..n.....OO.......n.................             ",
"     O  O OO..O.......O......................                   ",
"                 ................                               ",
"                                                                ",
"                                                                ",
"                                                                ",
"                                                                ",
"                                                                ",
"                                                                ",
"                                                                ",
"                                                                ",
"                                                                ",
"                                                                ",
"                                                                ",
"                                                                ",
"                                                                "
};
