/* XPM */
static char *_be658a9c12d401c9af1f27ffb8680e7I0kjf0cqNdZlx1nB[] = {
/* columns rows colors chars-per-pixel */
"64 64 35 1 ",
"  c None",
". c #3A2035",
"X c #3A2036",
"o c #41192B",
"O c #CE70BE",
"+ c #C85FD3",
"@ c #CE6ACA",
"# c #CF6CC8",
"$ c #D16FC6",
"% c #D372C3",
"& c #D373C3",
"* c #D473C3",
"= c #D374C3",
"- c #D474C3",
"; c #D575C3",
": c #D576C3",
"> c #D676C3",
", c #D271C4",
"< c #D272C4",
"1 c #D372C4",
"2 c #D170C6",
"3 c #D271C6",
"4 c #D474C4",
"5 c #D476C4",
"6 c #D777C4",
"7 c #C961D1",
"8 c #C961D2",
"9 c #EB8FC3",
"0 c #EC8FC2",
"q c #EC8EC3",
"w c #EC8FC3",
"e c #EC8FC4",
"r c #EC90C3",
"t c #EA92C6",
"y c #F0DDE4",
/* pixels */
"                                                                ",
"                                                                ",
"                                                                ",
"                                                                ",
"                                                                ",
"                                   wwwwwwww                     ",
"                                www&&&>&&&&ww                   ",
"                             www&&&&&&&&&&&&&www                ",
"                            ww>>>>&&&&&&&&&&&&&w                ",
"                          ww&&&&&&&&&&&&&&&&&*&&ww              ",
"                        ww&y&=&&&&&&&&&&&&&&&&&&&w              ",
"                        wy&5&&&&&&&&&&&&&&&&&&&&&&w             ",
"                      wwyy&&=&&&&&&&&&&&&&&&&&&&>&&w            ",
"                      wyy&&&&&&&&&&&&&&&&&&&&&&&&&&&w           ",
"                     wy&&&&&&&&&&&&&&&&&&&&&&&&&&&&&w           ",
"               wwwwwwwy&&&&&&&&&&&&&&&&&&&&&&&&&&&&&&w          ",
"             ww+++wwty&&&&&&&&&&&&&&&&&&&&&&&&&&&&&&&w          ",
"             w+&&w e5&&&&&&&&&&&&&&&&&&&&&&&&&&&&&&&&&ww        ",
"            w+&&w  w+&&&&&&&&&&&&&&&&&&&&&&&&&&&&&&ww&&w        ",
"             www  ww+&&&&&&&&&&&&&&&&&&&&&&&&&&<&&www&&&        ",
"                  w&&&&&&&&&&&&&&&&&&&&&&&&&&&&&&w&&&&&&w       ",
"                 w+&&&&&&&&&&&&&&&&&&&&&&&&&&&&&&&&&&&&&w       ",
"                 ++&&&&&&&&&&&&&&&&&&&&&&&&&&&&&&&&&&&&&w       ",
"                w+&&&&&&&&&&&&&&&&&&&&&&&&&&&&&&&&&&&&&&w       ",
"                w+&<&&&&&&&&&&&&&&&&&&&&&&&&&&&&&&Ooooo&w       ",
"               ww&&>&&&&&&&&&&&&&&&&&&&&&&&&&&&&&&&oy&&&&w      ",
"               w+&&&&&&&&&&&&&&&&&&&&&&&&&&&&&&&&&&oo&&&&w      ",
"               w+&w&&&&&&&&&&&&&&&&&&&&&&&&&&&&&&&&oo&&&&w      ",
"              9+&&&&&&&&&&&&&&&&&&&&&&&&&&&&&&&&&&&oo&&&&w      ",
"             ww&&&&&&&&&&&&&&&&&&&&&&&&&&&&&&&&&&&&oo&&&&&w     ",
"             w+&w&&&&&&&&&&&&&&&&&&&&&&&&&&&&&&&&&+www&&&&w     ",
"             w+&w&&&&&&&&&&&&&&&&&&&&&&&&&&&&&&&&&$&&&&&&&w     ",
"             ++&&&&&&&&&&&&&&&&&&&&&&&&&&&&&&&&&&&&5&>*&&&w     ",
"            w+&&&&&+&&&&+&&&&&&&w&&&&&+&&&&&&w++&&&&&&&&&7w     ",
"            w+&&&&&+&&&&&&&&&&&&&&&&&&&&w&&&&&&&&&&&&&&<$+w     ",
"           ww&&+&&&&&&&&&&&&&+&&&&&&&&&&&&&&>&&&&+&&&<<+++w     ",
"           w+&&&&&&&&&&&&&&&&&&&&++++wwwww+++++++++++++www      ",
"          w+&&&<w&&&w&&++w&&&&&++www9 w   wwwwwwww++wwww        ",
"          w+&&&&&&&&&&&&&&&&++++ww     +   w                    ",
"          w+&w&&&&&&&&&&&&+++++ww             +                 ",
"         r+&&&&&&&w&&&+++++ww ww         w                      ",
"         w&&&&&&&&&7++ww+  +                                    ",
"         w+w&&&&w>++ww++ +   w    +                             ",
"        w++&&<#@++ww +                                          ",
"        w+&&+w+++w      w   +                                   ",
"       +&&++w++ww  +                                            ",
"      w&++www  +++  +                                           ",
"     wwe+     +            .................                    ",
"    +w     w            ........................                ",
"                     ........................                   ",
"                  ...............                               ",
"                                                                ",
"                                                                ",
"                                                                ",
"                                                                ",
"                                                                ",
"                                                                ",
"                                                                ",
"                                                                ",
"                                                                ",
"                                                                ",
"                                                                ",
"                                                                ",
"                                                                "
};
