/* XPM */
static char *e0f2eec974304816811bd9fc5a26ccb8qS7TmpvL9gY0NZKp[] = {
/* columns rows colors chars-per-pixel */
"64 64 49 1 ",
"  c None",
". c #3A2035",
"X c #3A2036",
"o c #41192B",
"O c #C85FD3",
"+ c #CC66CE",
"@ c #CE6ACA",
"# c #CE6BCA",
"$ c #CF6CC9",
"% c #CD68CC",
"& c #D16FC6",
"* c #D16FC7",
"= c #D071C0",
"- c #D172C1",
"; c #D372C3",
": c #D373C3",
"> c #D473C3",
", c #D374C3",
"< c #D474C3",
"1 c #D575C3",
"2 c #D676C3",
"3 c #D777C3",
"4 c #D170C5",
"5 c #D271C4",
"6 c #D270C5",
"7 c #D271C5",
"8 c #D272C4",
"9 c #D372C4",
"0 c #D373C4",
"q c #D272C5",
"w c #D170C6",
"e c #D474C4",
"r c #D477C4",
"t c #D879C3",
"y c #D97AC3",
"u c #DA7BC3",
"i c #DD7EC3",
"p c #DE7FC3",
"a c #D774CA",
"s c #CA63D0",
"d c #C860D2",
"f c #E688C3",
"g c #EB8EC3",
"h c #EC8FC3",
"j c #EC90C3",
"k c #EC9ECA",
"l c #D6BAC8",
"z c #EFDAE3",
"x c #F0DDE4",
/* pixels */
"                                                                ",
"                                                                ",
"                                                                ",
"                                                                ",
"                                                                ",
"                                   hhhhhhhh                     ",
"                                hhh::::::::hhh                  ",
"                              hh::::::::2:::::hh                ",
"                           hhh::::22::::::::::::h               ",
"                          hx:::::::::::::::::::::h              ",
"                        hhx:::::::::::::::::::::::h             ",
"                       hxxx:r::::::::::::::::::::::h            ",
"                     hhxxz::::,:::::::::::::::::::::h           ",
"                 hhjh:x:::::::::::::::::::::::::::::h           ",
"              hhhOOOOhk:::::::::::::::::::::::::::>::hh         ",
"              hOO::hhh::::::::::::::::::::::::::::::::h         ",
"             hO:::j ha7::::::::::::::::::::::::::::::::h        ",
"             hO:hh h::7::::::::::::::::::::::::::::::::h        ",
"              hh   h:h::::::::::::::::::::::::::::::::::h       ",
"                  h:::::::::::::::::::::::::::::::::::::h       ",
"                 h::::::::::::::::::::::::::::::::::::2:h       ",
"                h:::::::::::::::::::::::::::::::7:2hh::::h      ",
"               h::::::::::::::::::::::::::::::::7Ohhh::::h      ",
"               ::::::::::::::::::::::::::::::::::::::::::h      ",
"              h::::::::::::::::::::::::::::::::::::::::::h      ",
"             h:::::::::::::::::::::::::::::::::::::::::::h      ",
"             h::::2::::::::::::::::::::::::::::::::::::::h      ",
"             h:2:::::::::::::::::::::::::::::::::::oooo:::h     ",
"            h::h:::::::::::::::::::::::::::::::::::ol:::::h     ",
"            h:#::::::::::::::::::::::::::::::::::::oo:::::h     ",
"           hO:7::::::::::::::::::::::::::::::::::::oo:::::h     ",
"           h:::hh:+7:::7:::::::::::::::::::::::::::oo:::::h     ",
"          hO::$:::d7:::d7::::::::::::::::::::::::::oo:::::h     ",
"          hO:7%:::&:::::::h::::g2::::7::::::::::::Ofhh::::h     ",
"          hO::22:::::O:OO::7$:::::::7d:::::::::::7::::::::h     ",
"         hhO::yh::yp:7&7:::7#:O:::::::::::::::::::r:2>:::Oh     ",
"         hOpy:O:::hhOOhhhOOOOOOOO:::::::::hh:::::::::::7:Oh     ",
"         hOy2:::hh O   O hhhhhhhhhOOOO::::::7:::OOO:::::OOh     ",
"        hO:h:hOh  h       h O      hhhOO::::::::::::::::Oh      ",
"        hO::hO   O    O               hhhOOOO::::::::::Oh       ",
"        h2hhOO  O                        hhhhOOOOOOOOOhh        ",
"       hOh  h                                hhhhhhhhh          ",
"       hO                                       h               ",
"       hO                                                       ",
"      h  O                                                      ",
"                                                                ",
"     O                                                          ",
"    h                      .................                    ",
"                        ........................                ",
"                     ........................                   ",
"                  ...............                               ",
"                                                                ",
"                                                                ",
"                                                                ",
"                                                                ",
"                                                                ",
"                                                                ",
"                                                                ",
"                                                                ",
"                                                                ",
"                                                                ",
"                                                                ",
"                                                                ",
"                                                                "
};
