/* XPM */
static char *result[] = {
/* columns rows colors chars-per-pixel */
"64 64 12 1 ",
"  c #41192B",
". c #C85FD3",
"X c #D373C3",
"o c #C873D3",
"O c #EA93B0",
"+ c #EB8EC2",
"@ c #EB8FC3",
"# c #EC8FC2",
"$ c #EC8FC3",
"% c #F0DDE4",
"& c #F0DEE4",
"* c None",
/* pixels */
"****************************************************************",
"****************************************************************",
"****************************************************************",
"****************************************************************",
"****************************************************************",
"****************************************************************",
"****************************************************************",
"****************************************************************",
"****************************************************************",
"****************************************************************",
"****************************************************************",
"****************************************************************",
"*********************$$$$$$$$***********************************",
"******************$$$$XXXXXX$$$$$*******************************",
"*****************$$XXXXXXXXXXXXX$$******************************",
"***************$$$XXXXXXXXXXXXXXXX$$****************************",
"**************$$XXXXXXXXXXXXXXXXXX%$$$**************************",
"*************$$XXXXXXXXXXXXXXXXXXXX&%$$*************************",
"************$$XXXXXXXXXXXXXXXXXXXXX%%%$$************************",
"************$XXXXXXXXXXXXXXXXXXXXXXX%%X$$$*@@@@@****************",
"***********$$XXXXXXXXXXXXXXXXXXXXXXXXXX.$O$.....@***************",
"**********$$XXXXXXXXXXXXXXXXXXXXXXXXXXX%.$XX$$XX@***************",
"**********$XXXXXXXXXXXXXXXXXXXXXXXXXXXXXXXX$**@@@***************",
"*********$$XXXXXXXXXXXXXXXXXXXXXXXXXXXXXXX.$O*******************",
"*********$XXXXXXXXXXXXXXXXXXXXXXXXXXXXXXXXX.$*******************",
"*********$XXXXXXXXXXXXXXXXXXXXXXXXXXXXXXXXX.$$******************",
"********$$XXXXXXXXXXXXXXXXXXXXXXXXXXXXXXXXXX.$$*****************",
"********$XXX$$XXXXXXXXXXXXXXXXXXXXXXXXXXXXXXXX$*****************",
"********$XXX$$$.XXXXXXXXXXXXXXXXXXXXXXXXXXXXX.$$****************",
"*******O$XXXXXXXXXXXXXXXXXXXXXXXXXXXXXXXXXXXXX.$#***************",
"*******$XXXXXXXXXXXXXXXXXXXXXXXXXXXXXXXXXXXXXX..X***************",
"*******$XXXXXXXXXXXXXXXXXXXXXXXXXXXXXXXXXXXX$XX.$+**************",
"*******$XXXXXXXXXXXXXXXXXXXXXXXXXXXXXXXXXXXXXXX@.$**************",
"*******$XXXXXXXXXXXXXXXXXXXXXXXXXXXXXXXXXXXXXXXX.$**************",
"*******$XXXXXXXXXXXXXXXXXXXXXXXXXXXXXXXXXXXXXXXX.$$*************",
"******O$XX    XXXXXXXXXXXXXXXXXXXXXXXXXXXXXXXXXXX.$*************",
"******$XXXXX% XXXXXXXXXXXXXXXXXXXXXXXXXXXXXXXXXXX.$$************",
"******$XXXXX  XXXXXXXXXXXXXXXXXXXXXXXXXXXXXXXXXXX$..************",
"******$XXXXX  XXXXXXXXXXXXXXXXXXXXXXXXXXXXXXXXXXXX.$************",
"******$XXXXX  XXXXXXXXXXXXXXXXXXXXXXXXXXXXXXXXXXX$X$$***********",
"******$XXXX$$$.XXXXXXXXXXXXXXXXXXXXXXXXXXXXXXXXXXXX.$.**********",
"******$XXXXXXXXXXXXXXXXXXXXXXXXXXXXXXXXXXXXXXXX$XXXX.***********",
"******$XXXXXXXXXXXXXXXXXXXXXXXXXXXXXXXXXXXXXXXXXX$XX$$X*********",
"******$.XXXXXXXXXXXXXXXXXXXXXXXXXXXXXXXXXXXXXXXXXXX...**$*******",
"******$.XXXXXXXXXXXXXXXXXXXXXXXXXXXXXXXXXXXXXXXXXXXXX$$**.******",
"******$$..XXXXXXXXXX$XXX.XXXXXXXXXXXXXXXXXXXXX.XXXXXXX$$.***$***",
"*******$$$....XXXXXXX...XXX..XXX..XXXXXXXX...XXXXXX$X$X..*$*****",
"*********$$$$$......XXXXXXXXXX$XXXX.XXX$XXXXXX$XXXXXX...$$*X****",
"*************$$$$$$$............XXXXX.XXX.X.XX.......$$$$$$*$*Xo",
"*******************$$$$$$$$$$$$$.....$...$....$$$$$$$.*.********",
"*******************************$$$$$$$$$$$$$$@$*****************",
"****************************************************************",
"****************************************************************",
"****************************************************************",
"****************************************************************",
"****************************************************************",
"****************************************************************",
"****************************************************************",
"****************************************************************",
"****************************************************************",
"****************************************************************",
"****************************************************************",
"****************************************************************",
"****************************************************************"
};
