/* XPM */
static char *result[] = {
/* columns rows colors chars-per-pixel */
"64 64 5 1 ",
"  c #151115",
". c #4E337F",
"X c #6868AF",
"o c #A47FFF",
"O c white",
/* pixels */
"................................................................",
".oo.oooooooooooooooooooooooooo....oooooooooooooooooooooooooo.oo.",
".oo.ooooooooooooooooooooooooo.o..o.ooooooooooooooooooooooooo.oo.",
".oo..........................oo..oo..........................oo.",
".oo.                        .oo..oo.                        .oo.",
".oo.                        .oo..oo.                        .oo.",
".oo.                        .oo..oo.                        .oo.",
".oo.                        .oo..oo.                        .oo.",
".oo.                        .oo..oo.                        .oo.",
".oo.                        .oo..oo.                        .oo.",
".oo.                        .oo..oo.                        .oo.",
".oo.                        .oo..oo.                        .oo.",
".oo.                        .oo..oo.                        .oo.",
".oo.                        .oo..oo.                        .oo.",
".oo.                        .oo..oo.                        .oo.",
".oo.                        .oo..oo.                        .oo.",
".oo.                        .oo..oo.                        .oo.",
".oo.                        .oo..oo.                        .oo.",
".oo.                        .oo..oo.                        .oo.",
".oo.                        .oo..oo.                        .oo.",
".oo.                        .oo..oo.                        .oo.",
".oo.                        .oo..oo.                        .oo.",
".oo.                        .oo..oo.                        .oo.",
".oo.                        .oo..oo.                        .oo.",
".oo.                        .oo..oo.                        .oo.",
".oo.                        .oo..oo.                        .oo.",
".oo.                        .oo..oo.                        .oo.",
".oo.                        .oo..oo.                        .oo.",
".oo.                        .oo..oo.                        .oo.",
".oo.                       OOOo..oOOO                       .oo.",
".oo.                       OXOo..oOXO                       .oo.",
".oo.oooooooooooooooooooooooOXXo..oXXOooooooooooooooooooooooo.oo.",
".oo........................OXXo..oXXO........................oo.",
".oo.                       OOXo..oXOO                       .oo.",
".oo.                        .oo..o..                        .oo.",
".oo.                        .oo..oo.                        .oo.",
".oo.                        .oo..oo.                        .oo.",
".oo.                        .oo..oo.                        .oo.",
".oo.                        .oo..oo.                        .oo.",
".oo.                        .oo..oo.                        .oo.",
".oo.                        .oo..oo.                        .oo.",
".oo.                        .oo..oo.                        .oo.",
".oo.                        .oo..oo.                        .oo.",
".oo.                        .oo..oo.                        .oo.",
".oo.                        .oo..oo.                        .oo.",
".oo.                        .oo..oo.                        .oo.",
".oo.                        .oo..oo.                        .oo.",
".oo.                        .oo..oo.                        .oo.",
".oo.                        .oo..oo.                        .oo.",
".oo.                        .oo..oo.                        .oo.",
".oo.                        .oo..oo.                        .oo.",
".oo.                        .oo..oo.                        .oo.",
".oo.                        .oo..oo.                        .oo.",
".oo.                        .oo..oo.                        .oo.",
".oo.                        .oo..oo.                        .oo.",
".oo.                        .oo..oo.                        .oo.",
".oo.                        .oo..oo.                        .oo.",
".oo.                        .oo..oo.                        .oo.",
".oo.                        .oo..oo.                        .oo.",
".oo.                        .oo..oo.                        .oo.",
".oo..........................oo..oo..........................oo.",
".oo.ooooooooooooooooooooooooo.o..o.ooooooooooooooooooooooooo.oo.",
".oo.oooooooooooooooooooooooooo....oooooooooooooooooooooooooo.oo.",
"................................................................"
};
