/* XPM */
static char *result[] = {
/* columns rows colors chars-per-pixel */
"64 64 6 1 ",
"  c #151115",
". c #191114",
"X c #4E337F",
"o c #A47FFF",
"O c #FF9CD4",
"+ c white",
/* pixels */
"XXXX                                                        XXXX",
"XooX                                                        XooX",
"XooX                                                        XooX",
"XooX                     +                                  XooX",
"XooX                                                 +   O  XooX",
"XooX       O                                                XooX",
"XooX                 +                                      XooX",
"XooX                              o                         XooX",
"XooX                                +                       XooX",
"XooX                                   O                    XooX",
"XooX         +                   O                          XooX",
"XooX                                                o       XooX",
"XooX                                                        XooX",
"XooX                                                        XooX",
"XooX                                                        XooX",
"XooX                                      +   O             XooX",
"XooX                                    O                   XooX",
"XooX                         +                              XooX",
"XooX                                                        XooX",
"XooX                                                        XooX",
"XooX                                                        XooX",
"XooX                                                        XooX",
"XooX              o                                         XooX",
"XooX                                   O                    XooX",
"XooX                                            o           XooX",
"XooX                 O                       +              XooX",
"XooX                                                        XooX",
"XooX                                                        XooX",
"XooX                              +                         XooX",
"XooX                                                        XooX",
"XooX                                                        XooX",
"XooX                     o   +                O             XooX",
"XooX                                                        XooX",
"XooX                        +                               XooX",
"XooX                                                        XooX",
"XooX                                   +                    XooX",
"XooX                                                        XooX",
"XooX                                   O                    XooX",
"XooX       +                                        +       XooX",
"XooX                                                        XooX",
"XooX                 O                   o                  XooX",
"XooX          o                                             XooX",
"XooX                                                        XooX",
"XooX     +                             O                    XooX",
"XooX                                                        XooX",
"XooX                                                        XooX",
"XooX                                                        XooX",
"XooX                        o                               XooX",
"XooX           .                                            XooX",
"XooX           .                                            XooX",
"XooX                                                        XooX",
"XooX                       +o                      +        XooX",
"XooX                                                        XooX",
"XooX                                           +            XooX",
"XooX                                                 O      XooX",
"XooX           O  +                                         XooX",
"XooX                                                        XooX",
"XooX              O                                         XooX",
"XooX                                                        XooX",
"XooX         o                                              XooX",
"XooX                                                        XooX",
"XooX                                                        XooX",
"XooX                                                        XooX",
"XXXX                                                        XXXX"
};
