/* XPM */
static char *result[] = {
/* columns rows colors chars-per-pixel */
"64 64 2 1 ",
"  c #151115",
". c #A47FFF",
/* pixels */
"................................................................",
".                                                              .",
".                                                              .",
".                                                              .",
".                                                              .",
".                                                              .",
".                                                              .",
".                                                              .",
".                                                              .",
".                                                              .",
".                                                              .",
".                                                              .",
".                                                              .",
".                                                              .",
".                                                              .",
".                                                              .",
".                                                              .",
".                                                              .",
".                                                              .",
".                                                              .",
".                                                              .",
".                                                              .",
".                                                              .",
".                                                              .",
".                                                              .",
".                                                              .",
".                                                              .",
".                                                              .",
".                                                              .",
".                                                              .",
".                                                              .",
".                                                              .",
".                                                              .",
".                                                              .",
".                                                              .",
".                                                              .",
".                                                              .",
".                                                              .",
".                                                              .",
".                                                              .",
".                                                              .",
".                                                              .",
".                                                              .",
".                                                              .",
".                                                              .",
".                                                              .",
".                                                              .",
".                                                              .",
".                                                              .",
".                                                              .",
".                                                              .",
".                                                              .",
".                                                              .",
".                                                              .",
".                                                              .",
".                                                              .",
".                                                              .",
".                                                              .",
".                                                              .",
".                                                              .",
".                                                              .",
".                                                              .",
".                                                              .",
"................................................................"
};
