/* XPM */
static char *result[] = {
/* columns rows colors chars-per-pixel */
"64 64 56 1 ",
"  c #3A2035",
". c #3A2036",
"X c #41192B",
"o c #C85FD3",
"O c #CB65CD",
"+ c #D16FC6",
"@ c #D06EC7",
"# c #D16EC8",
"$ c #D26FC9",
"% c #D071C0",
"& c #D273C2",
"* c #D372C3",
"= c #D373C3",
"- c #D473C3",
"; c #D374C3",
": c #D474C3",
"> c #D475C3",
", c #D575C3",
"< c #D576C3",
"1 c #D676C3",
"2 c #D677C3",
"3 c #D777C3",
"4 c #D170C5",
"5 c #D271C4",
"6 c #D271C5",
"7 c #D272C4",
"8 c #D372C4",
"9 c #D373C5",
"0 c #D170C6",
"q c #D270C7",
"w c #D370C7",
"e c #D475C4",
"r c #D574C5",
"t c #D777C4",
"y c #D778C3",
"u c #D878C3",
"i c #D879C3",
"p c #D979C3",
"a c #D97AC3",
"s c #DA7AC3",
"d c #DA7CC2",
"f c #DB7CC3",
"g c #D270C8",
"h c #D370C8",
"j c #D270C9",
"k c #D471CA",
"l c #C961D1",
"z c #E687C6",
"x c #EB8EC3",
"c c #EB8FC3",
"v c #EC8EC3",
"b c #EC8FC3",
"n c #E88BC4",
"m c #EC8FC4",
"M c #F0DDE4",
"N c None",
/* pixels */
"NNNNNNNNNNNNNNNNNNNNNNNNNNNNNNNNNNNNNNNNNNNNNNNNNNNNNNNNNNNNNNNN",
"NNNNNNNNNNNNNNNNNNNNNNNNNNNNNNNNNNNNNNNNNNNNNNNNNNNNNNNNNNNNNNNN",
"NNNNNNNNNNNNNNNNNNNNNNNNNNNNNNNNNNNNNNNNNNNNNNNNNNNNNNNNNNNNNNNN",
"NNNNNNNNNNNNNNNNNNNNNNNNNNNNNNNNNNNNNNNNNNNNNNNNNNNNNNNNNNNNNNNN",
"NNNNNNNNNNNNNNNNNNNNNNNNNNNNNNNNNNNNNNNNNNNNNNNNNNNNNNNNNNNNNNNN",
"NNNNNNNNNNNNNNNNNNNNNNNNNNNNNNNNNNNNNNNNNNNNNNNNNNNNNNNNNNNNNNNN",
"NNNNNNNNNNNNNNNNNNNNNNNNNNNNNNNNNNNNNNNNNNNNNNNNNNNNNNNNNNNNNNNN",
"NNNNNNNNNNNNNNNNNNNNNNNNNNNNNNNNNNNNNNNNNNNNNNNNNNNNNNNNNNNNNNNN",
"NNNNNNNNNNNNNNNNNNNNNNNNNNNNNNNNNNNNNNNNNNNNNNNNNNNNNNNNNNNNNNNN",
"NNNNNNNNNNNNNNNNNNNNNbbbbbbbNNNNNNNNNNNNNNNNNNNNNNNNNNNNNNNNNNNN",
"NNNNNNNNNNNNNNNNNbbbbb:,==:abbbnNNNNNNNNNNNNNNNNNNNNNNNNNNNNNNNN",
"NNNNNNNNNNNNNNNNbbp========:1::bbNNNNNNNNNNNNNNNNNNNNNNNNNNNNNNN",
"NNNNNNNNNNNNNNbbbi:=============ibbNNNNNNNNNNNNNNNNNNNNNNNNNNNNN",
"NNNNNNNNNNNNNbbu:===============e=MbbNNNNNNNNNNNNNNNNNNNNNNNNNNN",
"NNNNNNNNNNNNxb:====================MbbNNNNNNNNbbNNNNNNNNNNNNNNNN",
"NNNNNNNNNNNNb1===================;=MMbbNNNNNNbobbbNNNNNNNNNNNNNN",
"NNNNNNNNNNNbb=======================MMbbNNbbboo==bNNNNNNNNNNNNNN",
"NNNNNNNNNNbb2==========================bbbboo===bNNNNNNNNNNNNNNN",
"NNNNNNNNNNb1===========================MMbbbvmbbNNNNNNNNNNNNNNNN",
"NNNNNNNNNbs=============================MtbNNNNNNNNNNNNNNNNNNNNN",
"NNNNNNNNNb================================bNNNNNNNNNNNNNNNNNNNNN",
"NNNNNNNNbf================================bxNNNNNNNNNNNNNNNNNNNN",
"NNNNNNNNbu================================obNNNNNNNNNNNNNNNNNNNN",
"NNNNNNNba:bb===============================ocNNNNNNNNNNNNNNNNNNN",
"NNNNNNNbi=bbb=j===========================7obbNNNNNNNNNNNNNNNNNN",
"NNNNNNNby====b9=============================obNNNNNNNNNNNNNNNNNN",
"NNNNNNbd===================================7=obNNNNNNNNNNNNNNNNN",
"NNNNNNb<===================================:bobbNNNNNNNNNNNNNNNN",
"NNNNNNb=X====================================oobNNNNNNNNNNNNNNNN",
"NNNNNNb1=XXX================================:==obNNNNNNNNNNNNNNN",
"NNNNNNb3==MX====================================obNNNNNNNNNNNNNN",
"NNNNNbb,==XX=================================:o=obNNNNNNNNNNNNNN",
"NNNNNb===%XX====================================obNNNNNNNNNNNNNN",
"NNNNNb===&XX==================================b==obNNNNNNNNNNNNN",
"NNNNNb>===XX===================================o=obNNNNNNNNNNNNN",
"NNNNNb,==<XX===================================o=bbNNNNNNNNNNNNN",
"NNNNNb-==bbbo===================================$=obNNNNNNNNNNNN",
"NNNNNb===,3,r=====================================obNNNNNNNNNNNN",
"NNNNNb7==========================================o=oboNNNNNNNNNN",
"NNNNNbo*===========================================obNNNNNNNNNNN",
"NNNNNbw+5=========::=============================o==obbNNNNNNNNN",
"NNNNNbooo@4*=======================b====b===========obNNNNNNNNNN",
"NNNNNNbbbooo==========oo=b=b============8=========8o=obNoNNNNNNN",
"NNNNNNNNbboboooooo4===67===============8====oob======obNNNNNNNNN",
"NNNNNNNNNNoobbboobooooooo==h=oo00=====oo========,=====obNNNNNNNN",
"NNNNNNNNNbNNNNNNNNbbbbbbbbooooooo6#gq======:ok=oooo==bbobbNNNNNN",
"NNNNNNNNNNoNNNNbb  .     .bbbzbbbbooooooolOoooooobbboooooobNNNNN",
"NNNNNNNNNNNN   . o     o    .  .  bbboobbbbbboobooNNbobbboobNNNN",
"NNNNNNNNNNNNN                 b    .  oo     b. NoNoNNNooNNbboNb",
"NNNNNNNNNNNNNNNNNNN              .      .o       o  ooNoNNoNNNNN",
"NNNNNNNNNNNNNNNNNNNNNNNNNNNNNNN                NNNNNNNNNNNNNNNNN",
"NNNNNNNNNNNNNNNNNNNNNNNNNNNNNNNNNNNNNNNNNNNNNNNNNNNNNNNNNNNNNNNN",
"NNNNNNNNNNNNNNNNNNNNNNNNNNNNNNNNNNNNNNNNNNNNNNNNNNNNNNNNNNNNNNNN",
"NNNNNNNNNNNNNNNNNNNNNNNNNNNNNNNNNNNNNNNNNNNNNNNNNNNNNNNNNNNNNNNN",
"NNNNNNNNNNNNNNNNNNNNNNNNNNNNNNNNNNNNNNNNNNNNNNNNNNNNNNNNNNNNNNNN",
"NNNNNNNNNNNNNNNNNNNNNNNNNNNNNNNNNNNNNNNNNNNNNNNNNNNNNNNNNNNNNNNN",
"NNNNNNNNNNNNNNNNNNNNNNNNNNNNNNNNNNNNNNNNNNNNNNNNNNNNNNNNNNNNNNNN",
"NNNNNNNNNNNNNNNNNNNNNNNNNNNNNNNNNNNNNNNNNNNNNNNNNNNNNNNNNNNNNNNN",
"NNNNNNNNNNNNNNNNNNNNNNNNNNNNNNNNNNNNNNNNNNNNNNNNNNNNNNNNNNNNNNNN",
"NNNNNNNNNNNNNNNNNNNNNNNNNNNNNNNNNNNNNNNNNNNNNNNNNNNNNNNNNNNNNNNN",
"NNNNNNNNNNNNNNNNNNNNNNNNNNNNNNNNNNNNNNNNNNNNNNNNNNNNNNNNNNNNNNNN",
"NNNNNNNNNNNNNNNNNNNNNNNNNNNNNNNNNNNNNNNNNNNNNNNNNNNNNNNNNNNNNNNN",
"NNNNNNNNNNNNNNNNNNNNNNNNNNNNNNNNNNNNNNNNNNNNNNNNNNNNNNNNNNNNNNNN",
"NNNNNNNNNNNNNNNNNNNNNNNNNNNNNNNNNNNNNNNNNNNNNNNNNNNNNNNNNNNNNNNN"
};
