/* XPM */
static char *result[] = {
/* columns rows colors chars-per-pixel */
"64 64 35 1 ",
"  c #3A2035",
". c #3A2036",
"X c #41192B",
"o c #CE70BE",
"O c #C85FD3",
"+ c #CE6ACA",
"@ c #CF6CC8",
"# c #D16FC6",
"$ c #D372C3",
"% c #D373C3",
"& c #D473C3",
"* c #D374C3",
"= c #D474C3",
"- c #D575C3",
"; c #D576C3",
": c #D676C3",
"> c #D271C4",
", c #D272C4",
"< c #D372C4",
"1 c #D170C6",
"2 c #D271C6",
"3 c #D474C4",
"4 c #D476C4",
"5 c #D777C4",
"6 c #C961D1",
"7 c #C961D2",
"8 c #EB8FC3",
"9 c #EC8FC2",
"0 c #EC8EC3",
"q c #EC8FC3",
"w c #EC8FC4",
"e c #EC90C3",
"r c #EA92C6",
"t c #F0DDE4",
"y c None",
/* pixels */
"yyyyyyyyyyyyyyyyyyyyyyyyyyyyyyyyyyyyyyyyyyyyyyyyyyyyyyyyyyyyyyyy",
"yyyyyyyyyyyyyyyyyyyyyyyyyyyyyyyyyyyyyyyyyyyyyyyyyyyyyyyyyyyyyyyy",
"yyyyyyyyyyyyyyyyyyyyyyyyyyyyyyyyyyyyyyyyyyyyyyyyyyyyyyyyyyyyyyyy",
"yyyyyyyyyyyyyyyyyyyyyyyyyyyyyyyyyyyyyyyyyyyyyyyyyyyyyyyyyyyyyyyy",
"yyyyyyyyyyyyyyyyyyyyyyyyyyyyyyyyyyyyyyyyyyyyyyyyyyyyyyyyyyyyyyyy",
"yyyyyyyyyyyyyyyyyyyyyqqqqqqqqyyyyyyyyyyyyyyyyyyyyyyyyyyyyyyyyyyy",
"yyyyyyyyyyyyyyyyyyyqq%%%%-%%%qqqyyyyyyyyyyyyyyyyyyyyyyyyyyyyyyyy",
"yyyyyyyyyyyyyyyyqqq%%%%%%%%%%%%%qq0yyyyyyyyyyyyyyyyyyyyyyyyyyyyy",
"yyyyyyyyyyyyyyyyq%%%%%%%%%%%%%===:qqyyyyyyyyyyyyyyyyyyyyyyyyyyyy",
"yyyyyyyyyyyyyyqq%%&%%%%%%%%%%%%%%%%%qqyyyyyyyyyyyyyyyyyyyyyyyyyy",
"yyyyyyyyyyyyyyq%%%%%%%%%%%%%%%%%%%*%t%qqyyyyyyyyyyyyyyyyyyyyyyyy",
"yyyyyyyyyyyyyq%%%%%%%%%%%%%%%%%%%%%%4%tqyyyyyyyyyyyyyyyyyyyyyyyy",
"yyyyyyyyyyyyq%%=%%%%%%%%%%%%%%%%%%%*%%ttqqyyyyyyyyyyyyyyyyyyyyyy",
"yyyyyyyyyyyq%%%%%%%%%%%%%%%%%%%%%%%%%%%ttqyyyyyyyyyyyyyyyyyyyyyy",
"yyyyyyyyyyyq%%%%%%%%%%%%%%%%%%%%%%%%%%%%%tqyyyyyyyyyyyyyyyyyyyyy",
"yyyyyyyyyyq%%%%%%%%%%%%%%%%%%%%%%%%%%%%%%tqqqqqqqyyyyyyyyyyyyyyy",
"yyyyyyyyyyq%%%%%%%%%%%%%%%%%%%%%%%%%%%%%%%trqqOOOqqyyyyyyyyyyyyy",
"yyyyyyyyqq%%%%%%%%%%%%%%%%%%%%%%%%%%%%%%%%%5wyq%%Oqyyyyyyyyyyyyy",
"yyyyyyyyq%%qq%%%%%%%%%%%%%%%%%%%%%%%%%%%%%%Oqyyq%%Oqyyyyyyyyyyyy",
"yyyyyyyy%%%qqq%%2%%%%%%%%%%%%%%%%%%%%%%%%%%O0qyyqqqyyyyyyyyyyyyy",
"yyyyyyyq%%%%%%q%%%%%%%%%%%%%%%%%%%%%%%%%%%%%%qyyyyyyyyyyyyyyyyyy",
"yyyyyyyq%%%%%%%%%%%%%%%%%%%%%%%%%%%%%%%%%%%%%Oqyyyyyyyyyyyyyyyyy",
"yyyyyyyq%%%%%%%%%%%%%%%%%%%%%%%%%%%%%%%%%%%$%OOyyyyyyyyyyyyyyyyy",
"yyyyyyyq%%%%%%%%%%%%%%%%%%%%%%%%%%%%%%%%%%%%%%Oqyyyyyyyyyyyyyyyy",
"yyyyyyyq%XXXXo%%%%%%%%%%%%%%%%%%%%%%%%%%%%%%,%Oqyyyyyyyyyyyyyyyy",
"yyyyyyq%%%%tX%%%%%%%%%%%%%%%%%%%%%%%%%%%%%%%=%%qqyyyyyyyyyyyyyyy",
"yyyyyyq%%%%XX%%%%%%%%%%%%%%%%%%%%%%%%%%%%%%%%%%Oqyyyyyyyyyyyyyyy",
"yyyyyyq%%%%XX%%%%%%%%%%%%%%%%%%%%%%%%%%%%%%%%q%Oqyyyyyyyyyyyyyyy",
"yyyyyyq%%%%XX%%%%%%%%%%%%%%%%%%%%%%%%%%%%%%%%%%%O8yyyyyyyyyyyyyy",
"yyyyyq%%%%%XX%%%%%%%%%%%%%%%%%%%%%%%%%%%%%%%%%%%%qqyyyyyyyyyyyyy",
"yyyyyq%%%%qqqO%%%%%%%%%%%%%%%%%%%%%%%%%%%%%%%%%q%Oqyyyyyyyyyyyyy",
"yyyyyq%%%%%%%#%%%%%%%%%%%%%%%%%%%%%%%%%%%%%%%%%q%Oqyyyyyyyyyyyyy",
"yyyyyq%%%&=%3%%%%%%%%%%%%%%%%%%%%%%%%%%%%%%%%%%%%OOyyyyyyyyyyyyy",
"yyyyyq7$%%%%%%%%OOq%%%%%%O%%%%%q%%%%%%%O%%%%O%%%%%Oqyyyyyyyyyyyy",
"yyyyyqO#>%%%%%%%%%%%%%%q%%%%%%%%%%%%%%%%%%%%O%%%%%Oqyyyyyyyyyyyy",
"yyyyyqOOO1>%%%O%%%%=%%%%%%%%%%%%%%O%%%%%%%%%%%%%O%%qqyyyyyyyyyyy",
"yyyyyyqqqOOOOOOOOOOOOOqqqqqOOOO%%%%%%%%%%%%%%%%%%%%Oqyyyyyyyyyyy",
"yyyyyyyyqqqqOOqqqqqqqqyyyqy8qqqOO%%%%%qOO%%q%%%q>%%%Oqyyyyyyyyyy",
"yyyyyyyyyyyyyyyyyyyyqyyyOyyyyyqqOOOO%%%%%%%%%%%%%%%%Oqyyyyyyyyyy",
"yyyyyyyyyyyyyyyyyOyyyyyyyyyyyyyqqOOOOO%%%%%%%%%%%%q%Oqyyyyyyyyyy",
"yyyyyyyyyyyyyyyyyyyyyyqyyyyyyyyyqqyqqOOOOO%%%q%%%%%%%Oeyyyyyyyyy",
"yyyyyyyyyyyyyyyyyyyyyyyyyyyyyyyyyyyyOyyOqqOO6%%%%%%%%%qyyyyyyyyy",
"yyyyyyyyyyyyyyyyyyyyyyyyyyyyyOyyyyqyyyOyOOqqOO;q%%%%qOqyyyyyyyyy",
"yyyyyyyyyyyyyyyyyyyyyyyyyyyyyyyyyyyyyyyyyyOyqqOO+@<%%OOqyyyyyyyy",
"yyyyyyyyyyyyyyyyyyyyyyyyyyyyyyyyyyyOyyyqyyyyyyqOOOqO%%O9yyyyyyyy",
"yyyyyyyyyyyyyyyyyyyyyyyyyyyyyyyyyyyyyyyyyyyyOyyqqOOqOO%%Oyyyyyyy",
"yyyyyyyyyyyyyyyyyyyyyyyyyyyyyyyyyyyyyyyyyyyOyyOOOyyqqqOO%qyyyyyy",
"yyyyyyyyyyyyyyyyyyyy          .      yyyyyyyyyyyyOyyyyyOwqqyyyyy",
"yyyyyyyyyyyyyyyy .            ..        yyyyyyyyyyyyqyyyyyqOyyyy",
"yyyyyyyyyyyyyyyyyyy    . .   .             yyyyyyyyyyyyyyyyyyyyy",
"yyyyyyyyyyyyyyyyyyyyyyyyyyyyyyy        .      yyyyyyyyyyyyyyyyyy",
"yyyyyyyyyyyyyyyyyyyyyyyyyyyyyyyyyyyyyyyyyyyyyyyyyyyyyyyyyyyyyyyy",
"yyyyyyyyyyyyyyyyyyyyyyyyyyyyyyyyyyyyyyyyyyyyyyyyyyyyyyyyyyyyyyyy",
"yyyyyyyyyyyyyyyyyyyyyyyyyyyyyyyyyyyyyyyyyyyyyyyyyyyyyyyyyyyyyyyy",
"yyyyyyyyyyyyyyyyyyyyyyyyyyyyyyyyyyyyyyyyyyyyyyyyyyyyyyyyyyyyyyyy",
"yyyyyyyyyyyyyyyyyyyyyyyyyyyyyyyyyyyyyyyyyyyyyyyyyyyyyyyyyyyyyyyy",
"yyyyyyyyyyyyyyyyyyyyyyyyyyyyyyyyyyyyyyyyyyyyyyyyyyyyyyyyyyyyyyyy",
"yyyyyyyyyyyyyyyyyyyyyyyyyyyyyyyyyyyyyyyyyyyyyyyyyyyyyyyyyyyyyyyy",
"yyyyyyyyyyyyyyyyyyyyyyyyyyyyyyyyyyyyyyyyyyyyyyyyyyyyyyyyyyyyyyyy",
"yyyyyyyyyyyyyyyyyyyyyyyyyyyyyyyyyyyyyyyyyyyyyyyyyyyyyyyyyyyyyyyy",
"yyyyyyyyyyyyyyyyyyyyyyyyyyyyyyyyyyyyyyyyyyyyyyyyyyyyyyyyyyyyyyyy",
"yyyyyyyyyyyyyyyyyyyyyyyyyyyyyyyyyyyyyyyyyyyyyyyyyyyyyyyyyyyyyyyy",
"yyyyyyyyyyyyyyyyyyyyyyyyyyyyyyyyyyyyyyyyyyyyyyyyyyyyyyyyyyyyyyyy",
"yyyyyyyyyyyyyyyyyyyyyyyyyyyyyyyyyyyyyyyyyyyyyyyyyyyyyyyyyyyyyyyy"
};
