/* XPM */
static char *result[] = {
/* columns rows colors chars-per-pixel */
"64 64 49 1 ",
"  c #3A2035",
". c #3A2036",
"X c #41192B",
"o c #C85FD3",
"O c #CC66CE",
"+ c #CE6ACA",
"@ c #CE6BCA",
"# c #CF6CC9",
"$ c #CD68CC",
"% c #D16FC6",
"& c #D16FC7",
"* c #D071C0",
"= c #D172C1",
"- c #D372C3",
"; c #D373C3",
": c #D473C3",
"> c #D374C3",
", c #D474C3",
"< c #D575C3",
"1 c #D676C3",
"2 c #D777C3",
"3 c #D170C5",
"4 c #D271C4",
"5 c #D270C5",
"6 c #D271C5",
"7 c #D272C4",
"8 c #D372C4",
"9 c #D373C4",
"0 c #D272C5",
"q c #D170C6",
"w c #D474C4",
"e c #D477C4",
"r c #D879C3",
"t c #D97AC3",
"y c #DA7BC3",
"u c #DD7EC3",
"i c #DE7FC3",
"p c #D774CA",
"a c #CA63D0",
"s c #C860D2",
"d c #E688C3",
"f c #EB8EC3",
"g c #EC8FC3",
"h c #EC90C3",
"j c #EC9ECA",
"k c #D6BAC8",
"l c #EFDAE3",
"z c #F0DDE4",
"x c None",
/* pixels */
"xxxxxxxxxxxxxxxxxxxxxxxxxxxxxxxxxxxxxxxxxxxxxxxxxxxxxxxxxxxxxxxx",
"xxxxxxxxxxxxxxxxxxxxxxxxxxxxxxxxxxxxxxxxxxxxxxxxxxxxxxxxxxxxxxxx",
"xxxxxxxxxxxxxxxxxxxxxxxxxxxxxxxxxxxxxxxxxxxxxxxxxxxxxxxxxxxxxxxx",
"xxxxxxxxxxxxxxxxxxxxxxxxxxxxxxxxxxxxxxxxxxxxxxxxxxxxxxxxxxxxxxxx",
"xxxxxxxxxxxxxxxxxxxxxxxxxxxxxxxxxxxxxxxxxxxxxxxxxxxxxxxxxxxxxxxx",
"xxxxxxxxxxxxxxxxxxxxxggggggggxxxxxxxxxxxxxxxxxxxxxxxxxxxxxxxxxxx",
"xxxxxxxxxxxxxxxxxxggg;;;;;;;;gggxxxxxxxxxxxxxxxxxxxxxxxxxxxxxxxx",
"xxxxxxxxxxxxxxxxgg;;;;;,;;;;;;;;ggxxxxxxxxxxxxxxxxxxxxxxxxxxxxxx",
"xxxxxxxxxxxxxxxg;;;;;;;;;;;;,1;;;;gggxxxxxxxxxxxxxxxxxxxxxxxxxxx",
"xxxxxxxxxxxxxxg;;;;;;;;;;;;;;;;;;;;;zgxxxxxxxxxxxxxxxxxxxxxxxxxx",
"xxxxxxxxxxxxxg;;;;;;;;;;;;;;;;;;;;;;;zggxxxxxxxxxxxxxxxxxxxxxxxx",
"xxxxxxxxxxxxg;;;;;;;;;;;;;;;;;;;;;;e;zzzgxxxxxxxxxxxxxxxxxxxxxxx",
"xxxxxxxxxxxg;;;;;;;;;;;;;;;;;;;;;>;;;;lzzggxxxxxxxxxxxxxxxxxxxxx",
"xxxxxxxxxxxg;;;;;;;;;;;;;;;;;;;;;;;;;;;;;z;ghggxxxxxxxxxxxxxxxxx",
"xxxxxxxxxgg;;:;;;;;;;;;;;;;;;;;;;;;;;;;;;jgoooogggxxxxxxxxxxxxxx",
"xxxxxxxxxg;;;;;;;;;;;;;;;;;;;;;;;;;;;;;;;;ggg;;oogxxxxxxxxxxxxxx",
"xxxxxxxxg;;;;;;;;;;;;;;;;;;;;;;;;;;;;;;;;6pgxh;;;ogxxxxxxxxxxxxx",
"xxxxxxxxg;;;;;;;;;;;;;;;;;;;;;;;;;;;;;;;;3;;gxgg;ogxxxxxxxxxxxxx",
"xxxxxxxg;;;;;;;;;;;;;;;;;;;;;;;;;;;;;;;;;;g;gxxxggxxxxxxxxxxxxxx",
"xxxxxxxg;;;;;;;;;;;;;;;;;;;;;;;;;;;;;;;;;;;;;gxxxxxxxxxxxxxxxxxx",
"xxxxxxxg;,;;;;;;;;;;;;;;;;;;;;;;;;;;;;;;;;;;;;gxxxxxxxxxxxxxxxxx",
"xxxxxxg;;;;gg<;0;;;;;;;;;;;;;;;;;;;;;;;;;;;;;;;gxxxxxxxxxxxxxxxx",
"xxxxxxg;;;;gggo9;;;;;;;;;;;;;;;;;;;;;;;;;;;;;;;;gxxxxxxxxxxxxxxx",
"xxxxxxg;;;;;;;;;;;;;;;;;;;;;;;;;;;;;;;;;;;;;;;;;;xxxxxxxxxxxxxxx",
"xxxxxxg;;;;;;;;;;;;;;;;;;;;;;;;;;;;;;;;;;;;;;;;;;gxxxxxxxxxxxxxx",
"xxxxxxg;;;;;;;;;;;;;;;;;;;;;;;;;;;;;;;;;;;;;;;;;;;gxxxxxxxxxxxxx",
"xxxxxxg;;;;;;=;;;;;;;;;;;;;;;;;;;;;;;;;;;;;;;1;;;;gxxxxxxxxxxxxx",
"xxxxxg;;*XXXX;;;;;;;;;;;;;;;;;;;;;;;;;;;;;;;;;;;<;gxxxxxxxxxxxxx",
"xxxxxg;;;;;kX;;;;;;;;;;;;;;;;;;;;;;;;;;;;;;;;;;;g;;gxxxxxxxxxxxx",
"xxxxxg;;;;;XX;;;;;;;;;;;;;;;;;;;;;;;;;;;;;;;;;;;;@;gxxxxxxxxxxxx",
"xxxxxg;;;;;XX;;;;;;;;;;;;;;;;;;;;;;;;;;;;;;;;;;;;q;ogxxxxxxxxxxx",
"xxxxxg;;;;;XX;;;;;;;;;;;;;;;;;;;;;;;;;;;6;;;5O;gg;;;gxxxxxxxxxxx",
"xxxxxg;;;;;XX;;;;;;;;;;;;;;;;;;;;;;;;;;4a;;;7s;;;#;;ogxxxxxxxxxx",
"xxxxxg;;;;ggdo;;;;;;;;;;;;3;;;;,f;;;;g;;;;;;;%;;;$4;ogxxxxxxxxxx",
"xxxxxg;;;;;;;;4;;;;;;;;;;;a8;;;;;;;#4;;oo;o;;;;;2<;;ogxxxxxxxxxx",
"xxxxxgo;;;:,;w;;;;;;;;;;;;;;;;;;;o;+5;;;9&5;uy;;gt;;oggxxxxxxxxx",
"xxxxxgo;6;;;;;;;;;;;gg;;;;;;;;;oooooooogggoogg;;;o;tiogxxxxxxxxx",
"xxxxxgoo;;-;;ooo;;-q;;;;;;oooogggggggggxoxxxoxgg;;;1rogxxxxxxxxx",
"xxxxxxgo;;;;;;;;;;;;;;;;oogggxxxxxxoxgxxxxxxxgxxgog;g;ogxxxxxxxx",
"xxxxxxxgo;;;;;;;;;;oooogggxxxxxxxxxxxxxxxoxxxxoxxxog;;ogxxxxxxxx",
"xxxxxxxxggoooooooooggggxxxxxxxxxxxxxxxxxxxxxxxxoxxoogg,gxxxxxxxx",
"xxxxxxxxxxgggggggggxxxxxxxxxxxxxxxxxxxxxxxxxxxxxxxxgxxgogxxxxxxx",
"xxxxxxxxxxxxxxxgxxxxxxxxxxxxxxxxxxxxxxxxxxxxxxxxxxxxxxxogxxxxxxx",
"xxxxxxxxxxxxxxxxxxxxxxxxxxxxxxxxxxxxxxxxxxxxxxxxxxxxxxxogxxxxxxx",
"xxxxxxxxxxxxxxxxxxxxxxxxxxxxxxxxxxxxxxxxxxxxxxxxxxxxxxoxxgxxxxxx",
"xxxxxxxxxxxxxxxxxxxxxxxxxxxxxxxxxxxxxxxxxxxxxxxxxxxxxxxxxxxxxxxx",
"xxxxxxxxxxxxxxxxxxxxxxxxxxxxxxxxxxxxxxxxxxxxxxxxxxxxxxxxxxoxxxxx",
"xxxxxxxxxxxxxxxxxxxx.       .        xxxxxxxxxxxxxxxxxxxxxxgxxxx",
"xxxxxxxxxxxxxxxx    .      .            xxxxxxxxxxxxxxxxxxxxxxxx",
"xxxxxxxxxxxxxxxxxxx        .  .            xxxxxxxxxxxxxxxxxxxxx",
"xxxxxxxxxxxxxxxxxxxxxxxxxxxxxxx. .     .      xxxxxxxxxxxxxxxxxx",
"xxxxxxxxxxxxxxxxxxxxxxxxxxxxxxxxxxxxxxxxxxxxxxxxxxxxxxxxxxxxxxxx",
"xxxxxxxxxxxxxxxxxxxxxxxxxxxxxxxxxxxxxxxxxxxxxxxxxxxxxxxxxxxxxxxx",
"xxxxxxxxxxxxxxxxxxxxxxxxxxxxxxxxxxxxxxxxxxxxxxxxxxxxxxxxxxxxxxxx",
"xxxxxxxxxxxxxxxxxxxxxxxxxxxxxxxxxxxxxxxxxxxxxxxxxxxxxxxxxxxxxxxx",
"xxxxxxxxxxxxxxxxxxxxxxxxxxxxxxxxxxxxxxxxxxxxxxxxxxxxxxxxxxxxxxxx",
"xxxxxxxxxxxxxxxxxxxxxxxxxxxxxxxxxxxxxxxxxxxxxxxxxxxxxxxxxxxxxxxx",
"xxxxxxxxxxxxxxxxxxxxxxxxxxxxxxxxxxxxxxxxxxxxxxxxxxxxxxxxxxxxxxxx",
"xxxxxxxxxxxxxxxxxxxxxxxxxxxxxxxxxxxxxxxxxxxxxxxxxxxxxxxxxxxxxxxx",
"xxxxxxxxxxxxxxxxxxxxxxxxxxxxxxxxxxxxxxxxxxxxxxxxxxxxxxxxxxxxxxxx",
"xxxxxxxxxxxxxxxxxxxxxxxxxxxxxxxxxxxxxxxxxxxxxxxxxxxxxxxxxxxxxxxx",
"xxxxxxxxxxxxxxxxxxxxxxxxxxxxxxxxxxxxxxxxxxxxxxxxxxxxxxxxxxxxxxxx",
"xxxxxxxxxxxxxxxxxxxxxxxxxxxxxxxxxxxxxxxxxxxxxxxxxxxxxxxxxxxxxxxx",
"xxxxxxxxxxxxxxxxxxxxxxxxxxxxxxxxxxxxxxxxxxxxxxxxxxxxxxxxxxxxxxxx"
};
