/* XPM */
static char *_47ea19e7bea4a06d62ff4a9b36fb9a2LO4JPMHiCLbOLFoe[] = {
/* columns rows colors chars-per-pixel */
"64 64 56 1 ",
"  c None",
". c #3A2035",
"X c #3A2036",
"o c #41192B",
"O c #C85FD3",
"+ c #CB65CD",
"@ c #D16FC6",
"# c #D06EC7",
"$ c #D16EC8",
"% c #D26FC9",
"& c #D071C0",
"* c #D273C2",
"= c #D372C3",
"- c #D373C3",
"; c #D473C3",
": c #D374C3",
"> c #D474C3",
", c #D475C3",
"< c #D575C3",
"1 c #D576C3",
"2 c #D676C3",
"3 c #D677C3",
"4 c #D777C3",
"5 c #D170C5",
"6 c #D271C4",
"7 c #D271C5",
"8 c #D272C4",
"9 c #D372C4",
"0 c #D373C5",
"q c #D170C6",
"w c #D270C7",
"e c #D370C7",
"r c #D475C4",
"t c #D574C5",
"y c #D777C4",
"u c #D778C3",
"i c #D878C3",
"p c #D879C3",
"a c #D979C3",
"s c #D97AC3",
"d c #DA7AC3",
"f c #DA7CC2",
"g c #DB7CC3",
"h c #D270C8",
"j c #D370C8",
"k c #D270C9",
"l c #D471CA",
"z c #C961D1",
"x c #E687C6",
"c c #EB8EC3",
"v c #EB8FC3",
"b c #EC8EC3",
"n c #EC8FC3",
"m c #E88BC4",
"M c #EC8FC4",
"N c #F0DDE4",
/* pixels */
"                                                                ",
"                                                                ",
"                                                                ",
"                                                                ",
"                                                                ",
"                                                                ",
"                                                                ",
"                                                                ",
"                                                                ",
"                     nnnnnnn                                    ",
"                 nnnnn22--2innnm                                ",
"                nni--------2222nn                               ",
"              nnni2-------------inn                             ",
"             nni2---------------t-Nnn                           ",
"            cn2--------------------Nnn        nn                ",
"            n2-------------------:-NNnn      nOnnn              ",
"           nn-----------------------NNnn  nnnOO--n              ",
"          nn2--------------------------nnnnOO---n               ",
"          n2---------------------------NNnnnnMnn                ",
"         ni-----------------------------Ntn                     ",
"         n--------------------------------n                     ",
"        ng--------------------------------nc                    ",
"        ni--------------------------------On                    ",
"       ni2nn-------------------------------Oc                   ",
"       ni-nnn-k---------------------------0Onn                  ",
"       nu----n0-----------------------------On                  ",
"      ng-----------------------------------0-On                 ",
"      n2-----------------------------------2nOnn                ",
"      n-o------------------------------------OOn                ",
"      n2-ooo--------------------------------2--On               ",
"      n2--No------------------------------------On              ",
"     nn2--oo---------------------------------2O-On              ",
"     n----oo------------------------------------On              ",
"     n----oo----------------------------------n--On             ",
"     n2---oo-----------------------------------O-On             ",
"     n2--2oo-----------------------------------O-nn             ",
"     n;--nnnO-----------------------------------$-On            ",
"     n---222t-------------------------------------On            ",
"     n0------------------------------------------O-OnO          ",
"     nO--------------------------------------------On           ",
"     n0#0---------22-----------------------------O--Onn         ",
"     nOOO#0------------------------n----n-----------On          ",
"      nnnOOO----------OO-n-n------------0---------0O-On O       ",
"        nnOnOOOOOO0---00---------------0----OOn------On         ",
"          OOnnnOOnOOOOOOO--k-OO00-----OO--------2-----On        ",
"         n        nnnnnnnnOOOOOOO0$k0------2Ol-OOOO--nnOnn      ",
"          O    On.........nnnxnnnnOOOOOOOz+OOOOOOOnnOOOOOOn     ",
"            .....O.....n..........nnnnnOOOnnnnOnOO  nOOnnnOn    ",
"             .................O.......OO.....n.. O O   OO  nnO n",
"                   ......................n.......n..OO n  O     ",
"                               ................                 ",
"                                                                ",
"                                                                ",
"                                                                ",
"                                                                ",
"                                                                ",
"                                                                ",
"                                                                ",
"                                                                ",
"                                                                ",
"                                                                ",
"                                                                ",
"                                                                ",
"                                                                "
};
