/* XPM */
static char *a8bb9de1e9c04ef5f600a15d56eacb50sPRNwhpoISFzfC2u[] = {
/* columns rows colors chars-per-pixel */
"64 64 12 1 ",
"  c None",
". c #41192B",
"X c #C85FD3",
"o c #D373C3",
"O c #C873D3",
"+ c #EA93B0",
"@ c #EB8EC2",
"# c #EB8FC3",
"$ c #EC8FC2",
"% c #EC8FC3",
"& c #F0DDE4",
"* c #F0DEE4",
/* pixels */
"                                                                ",
"                                                                ",
"                                                                ",
"                                                                ",
"                                                                ",
"                                                                ",
"                                                                ",
"                                                                ",
"                                                                ",
"                                                                ",
"                                                                ",
"                                                                ",
"                     %%%%%%%%                                   ",
"                  %%%%oooooo%%%%%                               ",
"                 %%ooooooooooooo%%                              ",
"               %%%oooooooooooooooo%%                            ",
"              %%oooooooooooooooooo*%%%        %%                ",
"             %%oooooooooooooooooooo**%%      %oX%               ",
"            %%ooooooooooooooooooooo***%%    %%oX#               ",
"            %ooooooooooooooooooooooo**o%%% %%oX%                ",
"           %%ooooooooooooooooooooooooooX%+%%XXX%                ",
"          %%ooooooooooooooooooooooooooo*X%oo%%%                 ",
"          %oooooooooooooooooooooooooooooooo%                    ",
"         %%oooooooooooooooooooooooooooooooX%+                   ",
"         %oooooooooooooooooooooooooooooooooX%                   ",
"         %oooooooooooooooooooooooooooooooooX%%                  ",
"        %%ooooooooooooooooooooooooooooooooooX%%                 ",
"        %ooo%%oooooooooooooooooooooooooooooooo%                 ",
"        %ooo%%%XoooooooooooooooooooooooooooooX%%                ",
"       +%oooooooooooooooooooooooooooooooooooooX%%               ",
"       %ooooooooooooooooooooooooooooooooooooooXXo               ",
"       %oo.ooooooooooooooooooooooooooooooooo%ooX%#              ",
"       %ooo.ooooooooooooooooooooooooooooooooooo#X%              ",
"       %oooo*.ooooooooooooooooooooooooooooooooooX%              ",
"       %oooo*.ooooooooooooooooooooooooooooooooooX%%             ",
"      +%oooo..oooooooooooooooooooooooooooooooooooX%             ",
"      %ooooo..oooooooooooooooooooooooooooooooooooX%%            ",
"      %ooooo..ooooooooooooooooooooooooooooooooooo%XX            ",
"      %ooooo..ooooooooooooooooooooooooooooooooooooX%            ",
"      %ooooo..ooooooooooooooooooooooooooooooooooo%o%%           ",
"      %oooo%%%XooooooooooooooooooooooooooooooooooooX%X          ",
"      %oooooooooooooooooooooooooooooooooooooooo%ooooX           ",
"      %oooooooooooooooooooooooooooooooooooooooooo%oo%%o         ",
"      %XoooooooooooooooooooooooooooooooooooooooooooXXX  %       ",
"      %Xooooooooooooooooooooooooooooooooooooooooooooo%%  X      ",
"   %  %%XXoooooooooo%oooXoooooooooooooooooooooXooooooo%%X   %   ",
"       %%%XXXXoooooooXXXoooXXoooXXooooooooXXXoooooo%o%oXX %     ",
"     %%  %%%%%XXXXXXoooooooooo%ooooXooo%oooooo%ooooooXXX%% o  % ",
"             %%%%%%%XXXXXXXXXXXXoooooXoooXoXooXXXXXXX%%%%%% % oO",
"                   %%%%%%%%%%%%%XXXXX%XXX%XXXX%%%%%%%X X        ",
"                               %%%%%%%%%%%%%%#%                 ",
"                                                                ",
"                                                                ",
"                                                                ",
"                                                                ",
"                                                                ",
"                                                                ",
"                                                                ",
"                                                                ",
"                                                                ",
"                                                                ",
"                                                                ",
"                                                                ",
"                                                                "
};
